; generated by Slic3r 1.3.0 on 2020-03-22 at 21:33:02

; external perimeters extrusion width = 0.44mm (2.10mm^3/s)
; perimeters extrusion width = 0.56mm (4.00mm^3/s)
; infill extrusion width = 0.50mm (3.66mm^3/s)
; solid infill extrusion width = 0.56mm (3.31mm^3/s)
; top infill extrusion width = 0.56mm (1.65mm^3/s)

M190 S80 ; set bed temperature and wait for it to be reached
M104 S250 ; set temperature
M106 S255 ; Turn on extr fan
G28 ; home all axes
;G1 Z5 F5000 ; lift nozzle

; Filament gcode

M109 S250 ; set temperature and wait for it to be reached
G21 ; set units to millimeters
G90 ; use absolute coordinates
M82 ; use absolute distances for extrusion
G92 E0
M106 S255
;G28 X0  ; home X axis
;G28 Y0  ; home Y axis

G1 Z0.300 F4200.000
G1 X63.157 Y71.919 F4200.000
G1 F540
G1 X63.665 Y71.549 E0.03203
G1 X64.016 Y71.356 E0.05248
G1 X64.286 Y71.236 E0.06749
G1 X64.624 Y71.118 E0.08574
G1 X64.956 Y71.031 E0.10324
G1 X65.606 Y70.941 E0.13668
G1 X89.353 Y69.494 E1.34927
G1 X90.443 Y69.484 E1.40482
G1 X91.483 Y69.538 E1.45789
G1 X92.503 Y69.653 E1.51022
G1 X93.564 Y69.839 E1.56512
G1 X94.710 Y70.118 E1.62524
G1 X95.802 Y70.460 E1.68354
G1 X96.774 Y70.835 E1.73664
G1 X97.913 Y71.363 E1.80063
G1 X98.804 Y71.850 E1.85241
G1 X99.898 Y72.545 E1.91848
G1 X100.875 Y73.270 E1.98045
G1 X101.726 Y73.996 E2.03748
G1 X102.201 Y74.445 E2.07079
G1 X102.683 Y74.939 E2.10598
G1 X103.116 Y75.416 E2.13882
G1 X103.559 Y75.944 E2.17395
G1 X103.957 Y76.457 E2.20702
G1 X104.355 Y77.015 E2.24194
G1 X104.745 Y77.609 E2.27817
G1 X105.091 Y78.188 E2.31254
G1 X105.238 Y78.482 E2.32927
G1 X105.356 Y78.777 E2.34550
G1 X105.456 Y79.111 E2.36327
G1 X105.520 Y79.424 E2.37953
G1 X105.556 Y79.734 E2.39546
G1 X105.565 Y80.037 E2.41089
G1 X105.546 Y80.375 E2.42816
G1 X105.497 Y80.706 E2.44518
G1 X105.332 Y81.288 E2.47605
G1 X105.096 Y81.803 E2.50494
G1 X104.447 Y82.850 E2.56771
G1 X103.763 Y83.798 E2.62727
G1 X103.165 Y84.529 E2.67541
G1 X102.378 Y85.378 E2.73443
G1 X101.657 Y86.066 E2.78522
G1 X100.772 Y86.811 E2.84417
G1 X99.960 Y87.412 E2.89567
G1 X99.123 Y87.959 E2.94660
G1 X98.237 Y88.467 E2.99867
G1 X97.359 Y88.906 E3.04871
G1 X96.334 Y89.343 E3.10551
G1 X95.458 Y89.657 E3.15292
G1 X94.399 Y89.966 E3.20917
G1 X93.459 Y90.182 E3.25832
G1 X92.445 Y90.355 E3.31073
G1 X91.459 Y90.464 E3.36129
G1 X90.361 Y90.518 E3.41734
G1 X89.345 Y90.506 E3.46913
G1 X65.606 Y89.058 E4.68130
G1 X64.958 Y88.969 E4.71463
G1 X64.644 Y88.888 E4.73116
G1 X64.300 Y88.769 E4.74971
G1 X63.743 Y88.498 E4.78129
G1 X63.452 Y88.311 E4.79891
G1 X63.194 Y88.114 E4.81543
G1 X62.784 Y87.719 E4.84448
G1 X62.402 Y87.222 E4.87641
G1 X62.245 Y86.961 E4.89194
G1 X62.075 Y86.615 E4.91157
G1 X61.877 Y86.055 E4.94184
G1 X61.807 Y85.763 E4.95716
G1 X61.745 Y85.357 E4.97809
G1 X61.718 Y84.874 E5.00275
G1 X61.718 Y75.114 E5.50019
G1 X61.745 Y74.643 E5.52422
G1 X61.809 Y74.230 E5.54553
G1 X61.877 Y73.945 E5.56049
G1 X62.002 Y73.566 E5.58082
G1 X62.161 Y73.199 E5.60120
G1 X62.337 Y72.880 E5.61977
G1 X62.592 Y72.512 E5.64258
G1 X62.819 Y72.243 E5.66050
G1 X63.112 Y71.958 E5.68133
G92 E0
G1 X92.100 Y84.794 F4200.000
G1 F950.4
G1 X92.212 Y84.631 E0.01012
G1 X92.383 Y84.520 E0.02049
G1 X92.861 Y84.382 E0.04586
G1 X93.018 Y84.312 E0.05462
G1 X93.223 Y84.138 E0.06831
G1 X93.359 Y83.911 E0.08181
G1 X93.578 Y83.340 E0.11297
G1 X93.764 Y82.952 E0.13492
G1 X93.823 Y82.726 E0.14680
G1 X93.781 Y82.510 E0.15804
G1 X93.508 Y81.886 E0.19275
G1 X92.914 Y80.282 E0.27994
G1 X92.614 Y79.552 E0.32018
G1 X92.522 Y79.231 E0.33716
G1 X92.489 Y78.868 E0.35574
G1 X92.546 Y78.594 E0.37001
G1 X92.627 Y78.456 E0.37820
G1 X92.784 Y78.324 E0.38863
G1 X93.050 Y78.256 E0.40262
G1 X93.289 Y78.276 E0.41484
G1 X93.491 Y78.344 E0.42570
G1 X93.686 Y78.472 E0.43760
G1 X93.824 Y78.641 E0.44872
G1 X93.918 Y78.853 E0.46054
G1 X94.104 Y79.500 E0.49486
G1 X94.474 Y80.448 E0.54672
G1 X94.639 Y80.441 E0.55512
G1 X95.115 Y79.030 E0.63104
G1 X95.252 Y78.739 E0.64742
G1 X95.405 Y78.514 E0.66130
G1 X95.569 Y78.359 E0.67279
G1 X95.752 Y78.270 E0.68316
G1 X95.948 Y78.259 E0.69321
G1 X96.142 Y78.328 E0.70371
G1 X96.318 Y78.465 E0.71504
G1 X96.455 Y78.649 E0.72672
G1 X96.541 Y78.869 E0.73878
G1 X96.558 Y79.077 E0.74941
G1 X96.489 Y79.364 E0.76446
G1 X96.202 Y80.018 E0.80084
G1 X95.988 Y80.665 E0.83559
G1 X95.036 Y83.325 E0.97956
G1 X94.655 Y84.307 E1.03328
G1 X94.384 Y84.904 E1.06669
G1 X94.267 Y85.102 E1.07842
G1 X94.090 Y85.329 E1.09307
G1 X93.807 Y85.557 E1.11157
G1 X93.535 Y85.691 E1.12703
G1 X93.313 Y85.768 E1.13901
G1 X93.017 Y85.835 E1.15451
G1 X92.769 Y85.846 E1.16715
G1 X92.555 Y85.803 E1.17829
G1 X92.403 Y85.727 E1.18691
G1 X92.211 Y85.528 E1.20102
G1 X92.107 Y85.310 E1.21333
G1 X92.068 Y85.148 E1.22179
G1 X92.059 Y84.996 E1.22958
G1 X92.088 Y84.853 E1.23700
G1 X91.985 Y84.632 F4200.000
G1 X91.578 Y83.244 F4200.000
G1 F950.4
G1 X91.357 Y83.316 E1.24888
G1 X91.124 Y83.322 E1.26076
G1 X90.913 Y83.258 E1.27198
G1 X90.742 Y83.130 E1.28287
G1 X90.552 Y82.867 E1.29938
G1 X90.106 Y82.063 E1.34626
G1 X89.950 Y82.408 E1.36558
G1 X89.757 Y82.736 E1.38499
G1 X89.550 Y83.029 E1.40326
G1 X89.383 Y83.195 E1.41527
G1 X89.132 Y83.310 E1.42932
G1 X88.852 Y83.282 E1.44369
G1 X88.595 Y83.141 E1.45862
G1 X88.445 Y82.965 E1.47043
G1 X88.379 Y82.775 E1.48069
G1 X88.374 Y82.623 E1.48839
G1 X88.416 Y82.413 E1.49933
G1 X88.482 Y82.245 E1.50852
G1 X89.011 Y81.319 E1.56288
G1 X89.337 Y80.859 E1.59162
G1 X89.372 Y80.756 E1.59715
G1 X88.641 Y79.508 E1.67092
G1 X88.545 Y79.314 E1.68191
G1 X88.461 Y79.064 E1.69537
G1 X88.445 Y78.780 E1.70989
G1 X88.549 Y78.537 E1.72334
G1 X88.707 Y78.389 E1.73435
G1 X88.854 Y78.309 E1.74288
G1 X89.101 Y78.254 E1.75582
G1 X89.278 Y78.271 E1.76486
G1 X89.412 Y78.320 E1.77213
G1 X89.538 Y78.399 E1.77973
G1 X89.705 Y78.561 E1.79158
G1 X89.933 Y78.891 E1.81203
G1 X90.190 Y79.391 E1.84066
G1 X90.354 Y79.020 E1.86132
G1 X90.504 Y78.749 E1.87712
G1 X90.690 Y78.524 E1.89197
G1 X90.879 Y78.367 E1.90450
G1 X91.134 Y78.257 E1.91867
G1 X91.404 Y78.279 E1.93246
G1 X91.644 Y78.433 E1.94703
G1 X91.803 Y78.651 E1.96077
G1 X91.869 Y78.932 E1.97546
G1 X91.792 Y79.239 E1.99158
G1 X91.104 Y80.402 E2.06047
G1 X91.032 Y80.573 E2.06989
G1 X91.009 Y80.699 E2.07644
G1 X91.019 Y80.814 E2.08232
G1 X91.065 Y80.936 E2.08895
G1 X91.747 Y82.072 E2.15649
G1 X91.883 Y82.375 E2.17344
G1 X91.922 Y82.630 E2.18659
G1 X91.892 Y82.868 E2.19880
G1 X91.789 Y83.074 E2.21056
G1 X91.625 Y83.207 E2.22128
G1 X91.573 Y83.477 F4200.000
G92 E0
G1 X87.983 Y82.529 F4200.000
G1 F950.4
G1 X87.934 Y82.743 E0.01120
G1 X87.800 Y83.027 E0.02719
G1 X87.664 Y83.202 E0.03853
G1 X87.498 Y83.350 E0.04986
G1 X87.223 Y83.504 E0.06590
G1 X87.010 Y83.567 E0.07724
G1 X86.795 Y83.590 E0.08824
G1 X86.579 Y83.575 E0.09929
G1 X86.369 Y83.524 E0.11028
G1 X86.166 Y83.433 E0.12163
G1 X85.914 Y83.244 E0.13769
G1 X85.770 Y83.076 E0.14898
G1 X85.658 Y82.885 E0.16025
G1 X85.561 Y82.585 E0.17630
G1 X85.543 Y82.364 E0.18763
G1 X85.561 Y82.143 E0.19891
G1 X85.667 Y81.816 E0.21643
G1 X85.770 Y81.653 E0.22627
G1 X85.911 Y81.488 E0.23732
G1 X86.078 Y81.352 E0.24833
G1 X86.267 Y81.245 E0.25941
G1 X86.477 Y81.174 E0.27067
G1 X86.741 Y81.140 E0.28425
G1 X87.007 Y81.162 E0.29786
G1 X87.219 Y81.224 E0.30911
G1 X87.412 Y81.322 E0.32018
G1 X87.585 Y81.450 E0.33114
G1 X87.734 Y81.609 E0.34221
G1 X87.851 Y81.791 E0.35328
G1 X87.937 Y81.995 E0.36456
G1 X87.993 Y82.305 E0.38060
G1 X87.986 Y82.469 E0.38896
G1 X88.159 Y82.661 F4200.000
G92 E0
G1 X85.570 Y81.516 F4200.000
G1 F950.4
G1 X85.482 Y81.720 E0.01129
G1 X85.254 Y82.088 E0.03339
G1 X85.020 Y82.366 E0.05188
G1 X84.837 Y82.535 E0.06460
G1 X84.645 Y82.680 E0.07685
G1 X84.341 Y82.850 E0.09460
G1 X83.913 Y82.995 E0.11766
G1 X83.373 Y83.082 E0.14551
G1 X82.850 Y83.109 E0.17221
G1 X82.033 Y83.101 E0.21386
G1 X81.588 Y83.143 E0.23665
G1 X81.379 Y83.126 E0.24734
G1 X81.238 Y83.073 E0.25500
G1 X81.090 Y82.952 E0.26474
G1 X80.979 Y82.771 E0.27556
G1 X80.911 Y82.542 E0.28773
G1 X80.887 Y82.268 E0.30178
G1 X80.905 Y81.665 E0.33252
G1 X80.909 Y78.051 E0.51672
G1 X80.866 Y77.423 E0.54878
G1 X80.944 Y77.143 E0.56357
G1 X81.141 Y76.951 E0.57764
G1 X81.427 Y76.840 E0.59325
G1 X81.727 Y76.809 E0.60862
G1 X83.338 Y76.845 E0.69073
G1 X83.792 Y76.905 E0.71406
G1 X84.264 Y77.028 E0.73894
G1 X84.645 Y77.214 E0.76052
G1 X84.989 Y77.488 E0.78296
G1 X85.260 Y77.806 E0.80426
G1 X85.510 Y78.232 E0.82946
G1 X85.655 Y78.599 E0.84956
G1 X85.731 Y78.870 E0.86389
G1 X85.826 Y79.472 E0.89495
G1 X85.846 Y79.980 E0.92086
G1 X85.832 Y80.336 E0.93900
G1 X85.740 Y80.972 E0.97177
G1 X85.588 Y81.459 E0.99777
G1 X85.710 Y81.688 F4200.000
G92 E0
G1 X76.400 Y81.512 F4200.000
G1 F950.4
G1 X76.707 Y81.458 E0.01586
G1 X76.958 Y81.486 E0.02874
G1 X77.163 Y81.561 E0.03986
G1 X77.594 Y81.871 E0.06691
G1 X77.695 Y81.924 E0.07274
G1 X77.828 Y81.942 E0.07959
G1 X77.943 Y81.923 E0.08554
G1 X78.134 Y81.831 E0.09633
G1 X78.243 Y81.734 E0.10374
G1 X78.326 Y81.614 E0.11121
G1 X78.380 Y81.476 E0.11873
G1 X78.400 Y81.269 E0.12935
G1 X78.356 Y81.065 E0.13996
G1 X78.237 Y80.844 E0.15280
G1 X78.102 Y80.688 E0.16328
G1 X77.939 Y80.558 E0.17393
G1 X77.753 Y80.465 E0.18451
G1 X77.621 Y80.422 E0.19160
G1 X77.126 Y80.331 E0.21723
G1 X76.921 Y80.252 E0.22843
G1 X76.736 Y80.077 E0.24142
G1 X76.664 Y79.871 E0.25252
G1 X76.660 Y79.644 E0.26409
G1 X76.718 Y79.412 E0.27631
G1 X76.796 Y79.255 E0.28520
G1 X76.946 Y79.081 E0.29694
G1 X77.194 Y78.960 E0.31099
G1 X77.649 Y78.882 E0.33455
G1 X77.796 Y78.833 E0.34246
G1 X77.917 Y78.755 E0.34977
G1 X78.016 Y78.651 E0.35709
G1 X78.080 Y78.538 E0.36369
G1 X78.104 Y78.435 E0.36910
G1 X78.090 Y78.276 E0.37722
G1 X78.046 Y78.173 E0.38295
G1 X77.978 Y78.089 E0.38847
G1 X77.902 Y78.037 E0.39314
G1 X77.805 Y78.008 E0.39828
G1 X77.681 Y78.005 E0.40463
G1 X77.463 Y78.060 E0.41605
G1 X76.958 Y78.373 E0.44637
G1 X76.810 Y78.431 E0.45445
G1 X76.615 Y78.449 E0.46443
G1 X76.416 Y78.385 E0.47511
G1 X76.214 Y78.226 E0.48818
G1 X76.071 Y78.027 E0.50070
G1 X75.987 Y77.799 E0.51306
G1 X75.979 Y77.573 E0.52457
G1 X76.078 Y77.321 E0.53839
G1 X76.233 Y77.138 E0.55061
G1 X76.442 Y76.980 E0.56398
G1 X76.629 Y76.876 E0.57488
G1 X76.929 Y76.758 E0.59131
G1 X77.261 Y76.684 E0.60861
G1 X77.571 Y76.650 E0.62451
G1 X77.988 Y76.651 E0.64578
G1 X78.271 Y76.682 E0.66031
G1 X78.599 Y76.752 E0.67740
G1 X78.806 Y76.826 E0.68860
G1 X79.069 Y76.968 E0.70384
G1 X79.231 Y77.092 E0.71423
G1 X79.428 Y77.304 E0.72899
G1 X79.577 Y77.549 E0.74360
G1 X79.676 Y77.886 E0.76149
G1 X79.694 Y78.185 E0.77677
G1 X79.657 Y78.679 E0.80200
G1 X79.568 Y79.008 E0.81940
G1 X79.440 Y79.215 E0.83178
G1 X79.262 Y79.377 E0.84405
G1 X79.071 Y79.485 E0.85524
G1 X79.375 Y79.686 E0.87380
G1 X79.533 Y79.850 E0.88542
G1 X79.655 Y80.060 E0.89776
G1 X79.767 Y80.372 E0.91467
G1 X79.887 Y80.805 E0.93759
G1 X79.934 Y81.126 E0.95413
G1 X79.913 Y81.535 E0.97501
G1 X79.795 Y81.960 E0.99745
G1 X79.641 Y82.279 E1.01550
G1 X79.374 Y82.640 E1.03840
G1 X79.044 Y82.923 E1.06056
G1 X78.657 Y83.128 E1.08290
G1 X78.236 Y83.243 E1.10511
G1 X77.860 Y83.280 E1.12440
G1 X77.448 Y83.274 E1.14540
G1 X77.200 Y83.245 E1.15812
G1 X76.880 Y83.173 E1.17485
G1 X76.589 Y83.063 E1.19067
G1 X76.364 Y82.926 E1.20412
G1 X76.174 Y82.741 E1.21761
G1 X76.030 Y82.477 E1.23295
G1 X75.976 Y82.224 E1.24614
G1 X76.009 Y81.913 E1.26210
G1 X76.160 Y81.663 E1.27696
G1 X76.349 Y81.544 E1.28837
G1 X76.444 Y81.204 F4200.000
G1 X76.261 Y80.689 F4200.000
G1 F1440
G1 X75.594 Y81.107 E1.32850
G1 X75.260 Y81.661 E1.36146
G1 X75.196 Y82.265 E1.39244
G1 X75.300 Y82.748 E1.41758
G1 X75.552 Y83.213 E1.44455
G1 X75.889 Y83.540 E1.46847
G1 X76.250 Y83.759 E1.48999
G1 X76.657 Y83.913 E1.51220
G1 X77.070 Y84.007 E1.53379
G1 X77.397 Y84.044 E1.55057
G1 X77.892 Y84.052 E1.57577
G1 X78.377 Y84.004 E1.60059
G1 X78.942 Y83.850 E1.63049
G1 X79.481 Y83.564 E1.66155
G1 X79.943 Y83.169 E1.69254
G1 X80.192 Y82.830 E1.71397
G1 X80.268 Y83.087 E1.72759
G1 X80.500 Y83.467 E1.75032
G1 X80.849 Y83.750 E1.77322
G1 X81.208 Y83.885 E1.79275
G1 X81.592 Y83.917 E1.81240
G1 X82.065 Y83.873 E1.83662
G1 X82.866 Y83.880 E1.87745
G1 X83.455 Y83.850 E1.90748
G1 X84.099 Y83.746 E1.94072
G1 X84.657 Y83.558 E1.97073
G1 X85.034 Y83.346 E1.99279
G1 X85.139 Y83.526 E2.00341
G1 X85.384 Y83.811 E2.02254
G1 X85.773 Y84.103 E2.04735
G1 X86.119 Y84.256 E2.06664
G1 X86.460 Y84.340 E2.08454
G1 X86.811 Y84.364 E2.10247
G1 X87.161 Y84.326 E2.12044
G1 X87.524 Y84.219 E2.13969
G1 X87.948 Y83.982 E2.16448
G1 X88.167 Y83.786 E2.17945
G1 X88.619 Y84.035 E2.20571
G1 X89.265 Y84.098 E2.23878
G1 X89.829 Y83.839 E2.27042
G1 X90.105 Y83.565 E2.29026
G1 X90.186 Y83.676 E2.29728
G1 X90.559 Y83.956 E2.32105
G1 X91.018 Y84.096 E2.34552
G1 X91.655 Y84.080 E2.37796
G1 X91.375 Y84.488 E2.40313
G1 X91.283 Y84.941 E2.42669
G1 X91.302 Y85.263 E2.44315
G1 X91.377 Y85.569 E2.45922
G1 X91.569 Y85.973 E2.48199
G1 X91.940 Y86.358 E2.50926
G1 X92.301 Y86.538 E2.52982
G1 X92.709 Y86.621 E2.55102
G1 X92.944 Y86.610 E2.56302
G1 X92.971 Y86.822 E2.57391
G1 X92.429 Y86.935 E2.60208
G1 X91.599 Y87.052 E2.64485
G1 X90.741 Y87.122 E2.68870
G1 X89.830 Y87.137 E2.73514
G1 X89.185 Y87.112 E2.76806
G1 X65.867 Y85.686 E3.95871
G1 X65.593 Y85.639 E3.97289
G1 X65.447 Y85.575 E3.98104
G1 X65.317 Y85.472 E3.98944
G1 X65.169 Y85.245 E4.00326
G1 X65.110 Y85.010 E4.01561
G1 X65.100 Y84.861 E4.02325
G1 X65.101 Y83.049 E4.11559
G1 X65.577 Y83.443 E4.14712
G1 X66.097 Y83.742 E4.17767
G1 X66.424 Y83.871 E4.19557
G1 X66.778 Y83.969 E4.21428
G1 X67.122 Y84.027 E4.23210
G1 X67.635 Y84.054 E4.25825
G1 X68.124 Y84.022 E4.28323
G1 X68.572 Y83.935 E4.30653
G1 X68.987 Y83.787 E4.32896
G1 X69.274 Y83.636 E4.34548
G1 X69.619 Y83.390 E4.36707
G1 X69.937 Y83.059 E4.39046
G1 X70.235 Y82.571 E4.41960
G1 X70.408 Y81.968 E4.45160
G1 X70.196 Y81.285 E4.48804
G1 X69.759 Y80.829 E4.52022
G1 X69.223 Y80.587 E4.55019
G1 X68.756 Y80.533 E4.57418
G1 X68.333 Y80.604 E4.59600
G1 X68.031 Y80.741 E4.61294
G1 X67.783 Y80.926 E4.62868
G1 X67.669 Y81.061 E4.63768
G1 X67.436 Y81.045 E4.64958
G1 X67.271 Y80.954 E4.65920
G1 X67.164 Y80.771 E4.67001
G1 X67.112 Y80.583 E4.67995
G1 X67.075 Y80.326 E4.69317
G1 X67.059 Y79.927 E4.71353
G1 X67.078 Y79.568 E4.73189
G1 X67.117 Y79.322 E4.74454
G1 X67.168 Y79.152 E4.75361
G1 X67.281 Y78.962 E4.76489
G1 X67.370 Y78.904 E4.77029
G1 X67.528 Y78.872 E4.77851
G1 X68.196 Y79.249 E4.81758
G1 X68.598 Y79.377 E4.83912
G1 X69.051 Y79.401 E4.86219
G1 X69.527 Y79.255 E4.88761
G1 X69.898 Y78.972 E4.91137
G1 X70.033 Y78.796 E4.92270
G1 X70.339 Y78.968 E4.94060
G1 X70.790 Y79.048 E4.96395
G1 X71.285 Y78.997 E4.98933
G1 X71.303 Y81.907 E5.13765
G1 X71.258 Y82.641 E5.17516
G1 X71.355 Y83.061 E5.19712
G1 X71.578 Y83.439 E5.21948
G1 X72.052 Y83.785 E5.24939
G1 X72.659 Y83.921 E5.28112
G1 X73.235 Y83.844 E5.31070
G1 X73.671 Y83.606 E5.33602
G1 X73.992 Y83.244 E5.36069
G1 X74.166 Y82.842 E5.38299
G1 X74.239 Y82.433 E5.40419
G1 X74.224 Y78.997 E5.57928
G1 X74.520 Y79.002 E5.59436
G1 X74.972 Y78.954 E5.61753
G1 X75.391 Y78.824 E5.63990
G1 X75.587 Y78.674 E5.65244
G1 X75.652 Y78.765 E5.65812
G1 X76.030 Y79.063 E5.68267
G1 X75.990 Y79.144 E5.68731
G1 X75.887 Y79.557 E5.70897
G1 X75.895 Y80.009 E5.73206
G1 X76.070 Y80.508 E5.75900
G1 X76.217 Y80.648 E5.76935
G92 E0
G1 X91.823 Y80.701 F4200.000
G1 F950.4
G1 X92.076 Y80.273 E0.02533
G1 X92.533 Y81.474 E0.09082
G1 X92.343 Y81.565 E0.10156
G1 X91.854 Y80.752 E0.14991
G1 X92.665 Y82.384 F4200.000
G1 F950.4
G1 X92.859 Y82.328 E0.16024
G1 X93.026 Y82.708 E0.18136
G1 X92.835 Y83.104 E0.20377
G1 X92.647 Y83.049 E0.21379
G1 X92.700 Y82.621 E0.23578
G1 X92.673 Y82.444 E0.24491
G1 X92.511 Y83.355 F4200.000
G1 F950.4
