; generated by Slic3r 1.3.0 on 2020-03-24 at 21:54:51

; external perimeters extrusion width = 0.16mm (0.23mm^3/s)
; perimeters extrusion width = 0.56mm (3.10mm^3/s)
; infill extrusion width = 0.50mm (2.74mm^3/s)
; solid infill extrusion width = 0.56mm (2.48mm^3/s)
; top infill extrusion width = 0.56mm (1.24mm^3/s)

M190 S80 ; set bed temperature and wait for it to be reached
M104 S250 ; set temperature
M106 S255 ; Turn on extr fan
G28 ; home all axes
;G1 Z5 F5000 ; lift nozzle

; Filament gcode

M109 S250 ; set temperature and wait for it to be reached
G21 ; set units to millimeters
G90 ; use absolute coordinates
M82 ; use absolute distances for extrusion
G92 E0
M106 S255
;G28 X0  ; home X axis
;G28 Y0  ; home Y axis

G1 E-3.00000 F600.00000
G92 E0
G1 Z0.400 F3000.000
G1 X42.211 Y34.119 F3000.000
G1 Z0.300 F3000.000
G1 E3.00000 F600.00000
G1 F450
G1 X43.151 Y33.288 E3.06390
G1 X53.165 Y28.353 E3.63291
G1 X55.214 Y27.397 E3.74819
G1 X58.548 Y26.006 E3.93228
G1 X61.241 Y25.017 E4.07850
G1 X63.737 Y24.186 E4.21259
G1 X66.715 Y23.325 E4.37057
G1 X69.521 Y22.607 E4.51819
G1 X72.931 Y21.872 E4.69600
G1 X75.781 Y21.367 E4.84351
G1 X79.132 Y20.879 E5.01609
G1 X82.732 Y20.501 E5.20062
G1 X85.370 Y20.302 E5.33544
G1 X88.832 Y20.160 E5.51205
G1 X91.927 Y20.137 E5.66976
G1 X95.271 Y20.214 E5.84025
G1 X98.091 Y20.378 E5.98425
G1 X101.482 Y20.674 E6.15773
G1 X104.942 Y21.114 E6.33549
G1 X107.539 Y21.522 E6.46948
G1 X111.058 Y22.206 E6.65220
G1 X113.360 Y22.730 E6.77250
G1 X116.748 Y23.623 E6.95109
G1 X119.575 Y24.495 E7.10189
G1 X122.144 Y25.371 E7.24021
G1 X125.074 Y26.507 E7.40039
G1 X127.174 Y27.405 E7.51676
G1 X129.946 Y28.720 E7.67316
G1 X131.967 Y29.782 E7.78953
G1 X134.288 Y31.105 E7.92568
G1 X135.229 Y32.096 E7.99535
G1 X135.487 Y33.175 E8.05189
G1 X135.487 Y90.206 E10.95859
G1 X135.343 Y91.022 E11.00084
G1 X134.368 Y93.701 E11.14612
G1 X133.256 Y94.985 E11.23270
G1 X132.241 Y95.530 E11.29142
G1 X129.889 Y96.711 E11.42557
G1 X129.624 Y96.824 E11.44025
G1 X123.036 Y99.189 E11.79700
G1 X116.160 Y101.167 E12.16165
G1 X109.171 Y102.695 E12.52630
G1 X102.096 Y103.765 E12.89095
G1 X94.968 Y104.372 E13.25560
G1 X87.735 Y104.516 E13.62430
G1 X80.667 Y104.193 E13.98492
G1 X73.556 Y103.407 E14.34956
G1 X70.407 Y102.781 E14.51318
G1 X69.839 Y102.584 E14.54385
G1 X43.142 Y89.322 E16.06316
G1 X42.144 Y88.388 E16.13283
G1 X41.820 Y87.187 E16.19624
G1 X41.820 Y35.428 E18.83424
G1 X42.194 Y34.176 E18.90085
G1 E15.90085 F600.00000
G92 E0
G1 Z0.700 F3000.000
G1 X119.111 Y58.455 F3000.000
G1 Z0.300 F3000.000
G1 E3.00000 F600.00000
G1 F594
G1 X124.099 Y55.575 E3.29352
G1 X129.086 Y58.455 E3.58705
G1 X129.086 Y64.214 E3.88057
G1 X124.099 Y67.093 E4.17410
G1 X119.111 Y64.214 E4.46762
G1 X119.111 Y58.515 E4.75809
G1 X118.911 Y58.108 F3000.000
G1 E1.75809 F600.00000
G92 E0
G1 Z0.700 F3000.000
G1 X65.185 Y83.919 F3000.000
G1 Z0.300 F3000.000
G1 E3.00000 F600.00000
G1 F594
G1 X65.361 Y84.308 E3.02177
G1 X65.468 Y84.721 E3.04353
G1 X65.505 Y85.147 E3.06530
G1 X65.468 Y85.572 E3.08706
G1 X65.361 Y85.986 E3.10883
G1 X65.201 Y86.339 E3.12857
G1 X64.949 Y86.725 E3.15208
G1 X64.650 Y87.037 E3.17410
G1 X64.307 Y87.291 E3.19587
G1 X63.926 Y87.483 E3.21764
G1 X63.517 Y87.608 E3.23940
G1 X63.094 Y87.662 E3.26117
G1 X62.667 Y87.644 E3.28294
G1 X62.248 Y87.554 E3.30478
G1 X61.853 Y87.395 E3.32646
G1 X61.490 Y87.171 E3.34823
G1 X61.169 Y86.889 E3.37000
G1 X60.901 Y86.557 E3.39176
G1 X60.692 Y86.184 E3.41353
G1 X60.549 Y85.779 E3.43539
G1 X60.477 Y85.340 E3.45808
G1 X60.478 Y84.933 E3.47886
G1 X60.550 Y84.512 E3.50058
G1 X60.692 Y84.110 E3.52235
G1 X60.901 Y83.737 E3.54412
G1 X61.169 Y83.405 E3.56588
G1 X61.490 Y83.123 E3.58765
G1 X61.853 Y82.899 E3.60941
G1 X62.248 Y82.740 E3.63110
G1 X62.667 Y82.649 E3.65293
G1 X63.054 Y82.633 E3.67268
G1 X63.512 Y82.684 E3.69620
G1 X63.926 Y82.811 E3.71822
G1 X64.307 Y83.003 E3.73998
G1 X64.650 Y83.257 E3.76175
G1 X64.946 Y83.565 E3.78352
G1 X65.151 Y83.869 E3.80222
G1 X64.847 Y84.108 F3000.000
G1 F594
G1 X64.996 Y84.437 E3.82064
G1 X65.087 Y84.787 E3.83906
G1 X65.118 Y85.147 E3.85748
G1 X65.087 Y85.507 E3.87590
G1 X64.996 Y85.857 E3.89432
G1 X64.862 Y86.153 E3.91088
G1 X64.646 Y86.484 E3.93105
G1 X64.395 Y86.746 E3.94956
G1 X64.104 Y86.961 E3.96798
G1 X63.781 Y87.124 E3.98640
G1 X63.436 Y87.230 E4.00482
G1 X63.077 Y87.276 E4.02324
G1 X62.716 Y87.260 E4.04167
G1 X62.361 Y87.184 E4.06016
G1 X62.027 Y87.050 E4.07850
G1 X61.720 Y86.860 E4.09692
G1 X61.448 Y86.621 E4.11534
G1 X61.221 Y86.340 E4.13376
G1 X61.045 Y86.025 E4.15218
G1 X60.924 Y85.683 E4.17064
G1 X60.863 Y85.309 E4.18995
G1 X60.864 Y84.966 E4.20745
G1 X60.925 Y84.610 E4.22586
G1 X61.045 Y84.269 E4.24428
G1 X61.221 Y83.954 E4.26270
G1 X61.448 Y83.672 E4.28112
G1 X61.720 Y83.434 E4.29954
G1 X62.027 Y83.244 E4.31796
G1 X62.361 Y83.110 E4.33631
G1 X62.716 Y83.033 E4.35479
G1 X63.041 Y83.020 E4.37136
G1 X63.434 Y83.063 E4.39152
G1 X63.781 Y83.170 E4.41004
G1 X64.104 Y83.332 E4.42846
G1 X64.395 Y83.547 E4.44688
G1 X64.645 Y83.808 E4.46530
G1 X64.813 Y84.058 E4.48066
G1 X65.208 Y84.113 F3000.000
G1 E1.48066 F600.00000
G92 E0
G1 Z0.700 F3000.000
G1 X68.536 Y81.287 F3000.000
G1 Z0.300 F3000.000
G1 E3.00000 F600.00000
G1 F594
G1 X63.163 Y78.185 E3.31622
G1 X63.163 Y71.980 E3.63244
G1 X68.536 Y68.878 E3.94866
G1 X73.909 Y71.980 E4.26488
G1 X73.909 Y78.185 E4.58110
G1 X68.588 Y81.257 E4.89426
G1 X68.536 Y80.842 F3000.000
G1 F594
G1 X63.549 Y77.962 E5.18778
G1 X63.549 Y72.203 E5.48131
G1 X68.536 Y69.323 E5.77483
G1 X73.524 Y72.203 E6.06836
G1 X73.524 Y77.962 E6.36188
G1 X68.588 Y80.812 E6.65235
G1 X68.336 Y81.188 F3000.000
G1 E3.65235 F600.00000
G92 E0
G1 Z0.700 F3000.000
G1 X79.038 Y78.185 F3000.000
G1 Z0.300 F3000.000
G1 E3.00000 F600.00000
G1 F594
G1 X79.038 Y71.980 E3.31622
G1 X84.411 Y68.878 E3.63244
G1 X89.784 Y71.980 E3.94866
G1 X89.784 Y78.185 E4.26488
G1 X84.411 Y81.287 E4.58110
G1 X79.090 Y78.215 E4.89426
G1 X79.424 Y77.962 F3000.000
G1 F594
G1 X79.424 Y72.203 E5.18778
G1 X84.411 Y69.323 E5.48131
G1 X89.399 Y72.203 E5.77483
G1 X89.399 Y77.962 E6.06836
G1 X84.411 Y80.842 E6.36188
G1 X79.476 Y77.992 E6.65235
G1 X79.024 Y77.962 F3000.000
G1 E3.65235 F600.00000
G92 E0
G1 Z0.700 F3000.000
G1 X94.913 Y78.185 F3000.000
G1 Z0.300 F3000.000
G1 E3.00000 F600.00000
G1 F594
G1 X94.913 Y71.980 E3.31622
G1 X100.286 Y68.878 E3.63244
G1 X105.659 Y71.980 E3.94866
G1 X105.659 Y78.185 E4.26488
G1 X100.286 Y81.287 E4.58110
G1 X94.965 Y78.215 E4.89426
G1 X95.299 Y77.962 F3000.000
G1 F594
G1 X95.299 Y72.203 E5.18778
G1 X100.286 Y69.323 E5.48131
G1 X105.274 Y72.203 E5.77483
G1 X105.274 Y77.962 E6.06836
G1 X100.286 Y80.842 E6.36188
G1 X95.351 Y77.992 E6.65235
G1 X94.899 Y77.962 F3000.000
G1 E3.65235 F600.00000
G92 E0
G1 Z0.700 F3000.000
G1 X92.349 Y67.539 F3000.000
G1 Z0.300 F3000.000
G1 E3.00000 F600.00000
G1 F594
G1 X86.975 Y64.437 E3.31622
G1 X86.975 Y58.232 E3.63244
G1 X92.349 Y55.130 E3.94866
G1 X97.722 Y58.232 E4.26488
G1 X97.722 Y64.437 E4.58110
G1 X92.401 Y67.509 E4.89426
G1 X92.349 Y67.093 F3000.000
G1 F594
G1 X87.361 Y64.214 E5.18778
G1 X87.361 Y58.455 E5.48131
G1 X92.349 Y55.575 E5.77483
G1 X97.336 Y58.455 E6.06836
G1 X97.336 Y64.214 E6.36188
G1 X92.401 Y67.063 E6.65235
G1 X92.149 Y67.440 F3000.000
G1 E3.65235 F600.00000
G92 E0
G1 Z0.700 F3000.000
G1 X100.286 Y53.791 F3000.000
G1 Z0.300 F3000.000
G1 E3.00000 F600.00000
G1 F594
G1 X94.913 Y50.688 E3.31622
G1 X94.913 Y44.484 E3.63244
G1 X100.286 Y41.382 E3.94866
G1 X105.659 Y44.484 E4.26488
G1 X105.659 Y50.688 E4.58110
G1 X100.338 Y53.761 E4.89426
G1 X100.286 Y53.345 F3000.000
G1 F594
G1 X95.299 Y50.466 E5.18778
G1 X95.299 Y44.707 E5.48131
G1 X100.286 Y41.827 E5.77483
G1 X105.274 Y44.707 E6.06836
G1 X105.274 Y50.466 E6.36188
G1 X100.338 Y53.315 E6.65235
G1 X100.086 Y53.692 F3000.000
G1 E3.65235 F600.00000
G92 E0
G1 Z0.700 F3000.000
G1 X102.850 Y58.232 F3000.000
G1 Z0.300 F3000.000
G1 E3.00000 F600.00000
G1 F594
G1 X108.224 Y55.130 E3.31622
G1 X113.597 Y58.232 E3.63244
G1 X113.597 Y64.437 E3.94866
G1 X108.224 Y67.539 E4.26488
G1 X102.850 Y64.437 E4.58110
G1 X102.850 Y58.292 E4.89426
G1 X103.236 Y58.455 F3000.000
G1 F594
G1 X108.224 Y55.575 E5.18778
G1 X113.211 Y58.455 E5.48131
G1 X113.211 Y64.214 E5.77483
G1 X108.224 Y67.093 E6.06836
G1 X103.236 Y64.214 E6.36188
G1 X103.236 Y58.515 E6.65235
G1 X103.036 Y58.108 F3000.000
G1 E3.65235 F600.00000
G92 E0
G1 Z0.700 F3000.000
G1 X110.788 Y50.688 F3000.000
G1 Z0.300 F3000.000
G1 E3.00000 F600.00000
G1 F594
G1 X110.788 Y44.484 E3.31622
G1 X116.161 Y41.382 E3.63244
G1 X121.534 Y44.484 E3.94866
G1 X121.534 Y50.688 E4.26488
G1 X116.161 Y53.791 E4.58110
G1 X110.840 Y50.718 E4.89426
G1 X111.174 Y50.466 F3000.000
G1 F594
G1 X111.174 Y44.707 E5.18778
G1 X116.161 Y41.827 E5.48131
G1 X121.149 Y44.707 E5.77483
G1 X121.149 Y50.466 E6.06836
G1 X116.161 Y53.345 E6.36188
G1 X111.226 Y50.496 E6.65235
G1 X110.774 Y50.466 F3000.000
G1 E3.65235 F600.00000
G92 E0
G1 Z0.700 F3000.000
G1 X120.227 Y39.546 F3000.000
G1 Z0.300 F3000.000
G1 E3.00000 F600.00000
G1 F594
G1 X119.906 Y39.264 E3.02177
G1 X119.638 Y38.932 E3.04353
G1 X119.430 Y38.559 E3.06530
G1 X119.287 Y38.154 E3.08717
G1 X119.215 Y37.715 E3.10985
G1 X119.216 Y37.308 E3.13063
G1 X119.288 Y36.887 E3.15235
G1 X119.430 Y36.485 E3.17412
G1 X119.638 Y36.112 E3.19589
G1 X119.906 Y35.780 E3.21765
G1 X120.227 Y35.498 E3.23942
G1 X120.591 Y35.274 E3.26118
G1 X120.987 Y35.114 E3.28295
G1 X121.404 Y35.024 E3.30472
G1 X121.791 Y35.008 E3.32446
G1 X122.250 Y35.059 E3.34797
G1 X122.663 Y35.186 E3.36999
G1 X123.044 Y35.378 E3.39176
G1 X123.388 Y35.632 E3.41352
G1 X123.683 Y35.940 E3.43529
G1 X123.922 Y36.294 E3.45705
G1 X124.082 Y36.647 E3.47679
G1 X124.205 Y37.091 E3.50031
G1 X124.242 Y37.522 E3.52233
G1 X124.206 Y37.947 E3.54409
G1 X124.098 Y38.361 E3.56586
G1 X123.922 Y38.750 E3.58763
G1 X123.683 Y39.104 E3.60939
G1 X123.415 Y39.383 E3.62913
G1 X123.049 Y39.664 E3.65264
G1 X122.663 Y39.858 E3.67467
G1 X122.255 Y39.983 E3.69643
G1 X121.831 Y40.037 E3.71820
G1 X121.404 Y40.019 E3.73996
G1 X120.987 Y39.929 E3.76173
G1 X120.591 Y39.770 E3.78350
G1 X120.278 Y39.578 E3.80220
G1 X120.457 Y39.235 F3000.000
G1 F594
G1 X120.186 Y38.996 E3.82062
G1 X119.959 Y38.715 E3.83904
G1 X119.783 Y38.400 E3.85746
G1 X119.662 Y38.058 E3.87592
G1 X119.600 Y37.684 E3.89523
G1 X119.601 Y37.341 E3.91273
G1 X119.662 Y36.985 E3.93114
G1 X119.783 Y36.644 E3.94956
G1 X119.959 Y36.329 E3.96798
G1 X120.186 Y36.047 E3.98640
G1 X120.457 Y35.809 E4.00482
G1 X120.765 Y35.619 E4.02324
G1 X121.100 Y35.484 E4.04166
G1 X121.454 Y35.408 E4.06008
G1 X121.778 Y35.395 E4.07664
G1 X122.171 Y35.438 E4.09680
G1 X122.519 Y35.545 E4.11532
G1 X122.841 Y35.707 E4.13374
G1 X123.132 Y35.922 E4.15216
G1 X123.382 Y36.183 E4.17058
G1 X123.584 Y36.483 E4.18900
G1 X123.718 Y36.779 E4.20556
G1 X123.824 Y37.160 E4.22572
G1 X123.855 Y37.522 E4.24424
G1 X123.824 Y37.882 E4.26266
G1 X123.733 Y38.232 E4.28108
G1 X123.584 Y38.561 E4.29950
G1 X123.382 Y38.860 E4.31792
G1 X123.157 Y39.095 E4.33447
G1 X122.843 Y39.335 E4.35464
G1 X122.519 Y39.499 E4.37316
G1 X122.173 Y39.605 E4.39158
G1 X121.815 Y39.651 E4.41000
G1 X121.454 Y39.635 E4.42842
G1 X121.100 Y39.559 E4.44684
G1 X120.765 Y39.425 E4.46526
G1 X120.508 Y39.266 E4.48062
G1 X120.126 Y39.379 F3000.000
G1 E1.48062 F600.00000
G92 E0
G1 Z0.700 F3000.000
G1 X116.161 Y68.878 F3000.000
G1 Z0.300 F3000.000
G1 E3.00000 F600.00000
G1 F594
G1 X121.534 Y71.980 E3.31622
G1 X121.534 Y78.185 E3.63244
G1 X116.161 Y81.287 E3.94866
G1 X110.788 Y78.185 E4.26488
G1 X110.788 Y71.980 E4.58110
G1 X116.109 Y68.908 E4.89426
G1 X116.161 Y69.323 F3000.000
G1 F594
G1 X121.149 Y72.203 E5.18778
G1 X121.149 Y77.962 E5.48131
G1 X116.161 Y80.842 E5.77483
G1 X111.174 Y77.962 E6.06836
G1 X111.174 Y72.203 E6.36188
G1 X116.109 Y69.353 E6.65235
G1 X116.418 Y69.017 F3000.000
G1 E3.65235 F600.00000
G92 E0
G1 Z0.700 F3000.000
G1 X120.987 Y82.739 F3000.000
G1 Z0.300 F3000.000
G1 E3.00000 F600.00000
G1 F594
G1 X121.404 Y82.649 E3.02177
G1 X121.791 Y82.633 E3.04151
G1 X122.250 Y82.684 E3.06502
G1 X122.663 Y82.811 E3.08704
G1 X123.044 Y83.003 E3.10881
G1 X123.388 Y83.257 E3.13057
G1 X123.683 Y83.565 E3.15234
G1 X123.922 Y83.919 E3.17410
G1 X124.082 Y84.272 E3.19384
G1 X124.205 Y84.716 E3.21736
G1 X124.242 Y85.147 E3.23938
G1 X124.206 Y85.572 E3.26114
G1 X124.098 Y85.986 E3.28291
G1 X123.922 Y86.375 E3.30468
G1 X123.683 Y86.729 E3.32644
G1 X123.415 Y87.008 E3.34618
G1 X123.049 Y87.289 E3.36969
G1 X122.663 Y87.483 E3.39172
G1 X122.255 Y87.608 E3.41348
G1 X121.831 Y87.662 E3.43525
G1 X121.404 Y87.644 E3.45701
G1 X120.987 Y87.554 E3.47878
G1 X120.591 Y87.395 E3.50055
G1 X120.227 Y87.171 E3.52231
G1 X119.906 Y86.889 E3.54408
G1 X119.638 Y86.557 E3.56584
G1 X119.430 Y86.184 E3.58761
G1 X119.288 Y85.781 E3.60938
G1 X119.218 Y85.373 E3.63048
G1 X119.208 Y85.147 E3.64202
G1 X119.218 Y84.920 E3.65357
G1 X119.288 Y84.512 E3.67467
G1 X119.430 Y84.110 E3.69644
G1 X119.638 Y83.737 E3.71821
G1 X119.906 Y83.405 E3.73997
G1 X120.227 Y83.123 E3.76174
G1 X120.591 Y82.899 E3.78350
G1 X120.931 Y82.762 E3.80221
G1 X121.100 Y83.109 F3000.000
G1 F594
G1 X121.454 Y83.033 E3.82063
G1 X121.778 Y83.020 E3.83719
G1 X122.171 Y83.063 E3.85735
G1 X122.519 Y83.170 E3.87587
G1 X122.841 Y83.332 E3.89429
G1 X123.132 Y83.547 E3.91271
G1 X123.382 Y83.808 E3.93113
G1 X123.584 Y84.108 E3.94955
G1 X123.718 Y84.404 E3.96611
G1 X123.824 Y84.785 E3.98627
G1 X123.855 Y85.147 E4.00479
G1 X123.824 Y85.507 E4.02321
G1 X123.733 Y85.857 E4.04163
G1 X123.584 Y86.186 E4.06005
G1 X123.382 Y86.485 E4.07847
G1 X123.157 Y86.720 E4.09503
G1 X122.843 Y86.960 E4.11519
G1 X122.519 Y87.124 E4.13371
G1 X122.173 Y87.230 E4.15213
G1 X121.815 Y87.276 E4.17055
G1 X121.454 Y87.260 E4.18897
G1 X121.100 Y87.184 E4.20739
G1 X120.765 Y87.050 E4.22581
G1 X120.457 Y86.860 E4.24423
G1 X120.186 Y86.621 E4.26265
G1 X119.959 Y86.340 E4.28107
G1 X119.783 Y86.025 E4.29949
G1 X119.662 Y85.684 E4.31791
G1 X119.602 Y85.332 E4.33608
G1 X119.594 Y85.147 E4.34554
G1 X119.602 Y84.961 E4.35500
G1 X119.662 Y84.610 E4.37318
G1 X119.783 Y84.269 E4.39160
G1 X119.959 Y83.954 E4.41002
G1 X120.186 Y83.672 E4.42844
G1 X120.457 Y83.434 E4.44686
G1 X120.765 Y83.244 E4.46528
G1 X121.045 Y83.132 E4.48064
G1 X121.181 Y82.757 F3000.000
G1 E1.48064 F600.00000
G92 E0
G1 Z0.700 F3000.000
G1 X81.847 Y64.437 F3000.000
G1 Z0.300 F3000.000
G1 E3.00000 F600.00000
G1 F594
G1 X76.474 Y67.539 E3.31622
G1 X71.100 Y64.437 E3.63244
G1 X71.100 Y58.232 E3.94866
G1 X76.474 Y55.130 E4.26488
G1 X81.847 Y58.232 E4.58110
G1 X81.847 Y64.377 E4.89426
G1 X81.461 Y64.214 F3000.000
G1 F594
G1 X76.474 Y67.093 E5.18778
G1 X71.486 Y64.214 E5.48131
G1 X71.486 Y58.455 E5.77483
G1 X76.474 Y55.575 E6.06836
G1 X81.461 Y58.455 E6.36188
G1 X81.461 Y64.154 E6.65235
G1 X81.661 Y64.560 F3000.000
G1 E3.65235 F600.00000
G92 E0
G1 Z0.700 F3000.000
G1 X84.411 Y53.791 F3000.000
G1 Z0.300 F3000.000
G1 E3.00000 F600.00000
G1 F594
G1 X79.038 Y50.688 E3.31622
G1 X79.038 Y44.484 E3.63244
G1 X84.411 Y41.382 E3.94866
G1 X89.784 Y44.484 E4.26488
G1 X89.784 Y50.688 E4.58110
G1 X84.463 Y53.761 E4.89426
G1 X84.411 Y53.345 F3000.000
G1 F594
G1 X79.424 Y50.466 E5.18778
G1 X79.424 Y44.707 E5.48131
G1 X84.411 Y41.827 E5.77483
G1 X89.399 Y44.707 E6.06836
G1 X89.399 Y50.466 E6.36188
G1 X84.463 Y53.315 E6.65235
G1 X84.211 Y53.692 F3000.000
G1 E3.65235 F600.00000
G92 E0
G1 Z0.700 F3000.000
G1 X73.909 Y50.688 F3000.000
G1 Z0.300 F3000.000
G1 E3.00000 F600.00000
G1 F594
G1 X68.536 Y53.791 E3.31622
G1 X63.163 Y50.688 E3.63244
G1 X63.163 Y44.484 E3.94866
G1 X68.536 Y41.382 E4.26488
