; generated by Slic3r 1.3.0 on 2020-03-25 at 13:01:10

; external perimeters extrusion width = 0.44mm (0.61mm^3/s)
; perimeters extrusion width = 0.56mm (2.38mm^3/s)
; infill extrusion width = 0.50mm (2.11mm^3/s)
; solid infill extrusion width = 0.56mm (1.90mm^3/s)
; top infill extrusion width = 0.56mm (0.95mm^3/s)

M190 S80 ; set bed temperature and wait for it to be reached
M104 S250 ; set temperature
M106 S255 ; Turn on extr fan
G28 ; home all axes
;G1 Z5 F5000 ; lift nozzle

; Filament gcode

M109 S250 ; set temperature and wait for it to be reached
G21 ; set units to millimeters
G90 ; use absolute coordinates
M82 ; use absolute distances for extrusion
G92 E0
M106 S255
;G28 X0  ; home X axis
;G28 Y0  ; home Y axis

G1 E-4.00000 F600.00000
G92 E0
G1 Z0.400 F3000.000
G1 X16.547 Y22.050 F3000.000
G1 Z0.225 F3000.000
G1 E4.00000 F600.00000
G1 F450
G1 X17.067 Y21.719 E4.01769
G1 X17.442 Y21.533 E4.02967
G1 X17.831 Y21.382 E4.04164
G1 X18.445 Y21.217 E4.05986
G1 X57.478 Y13.034 E5.20324
G1 X57.999 Y12.938 E5.21844
G1 X58.611 Y12.860 E5.23613
G1 X128.017 Y8.925 E7.22912
G1 X128.567 Y8.940 E7.24490
G1 X129.020 Y9.022 E7.25811
G1 X129.310 Y9.110 E7.26679
G1 X129.668 Y9.260 E7.27792
G1 X129.934 Y9.405 E7.28661
G1 X130.185 Y9.574 E7.29528
G1 X145.566 Y20.921 E7.84325
G1 X146.003 Y21.292 E7.85969
G1 X146.463 Y21.797 E7.87928
G1 X146.826 Y22.329 E7.89773
G1 X146.953 Y22.557 E7.90520
G1 X147.142 Y22.969 E7.91819
G1 X147.291 Y23.393 E7.93110
G1 X147.399 Y23.834 E7.94411
G1 X147.466 Y24.282 E7.95709
G1 X147.490 Y24.759 E7.97077
G1 X147.490 Y52.759 E8.77351
G1 X147.457 Y53.309 E8.78932
G1 X147.334 Y53.966 E8.80847
G1 X147.124 Y54.590 E8.82736
G1 X146.953 Y54.960 E8.83905
G1 X146.726 Y55.351 E8.85200
G1 X146.309 Y55.905 E8.87188
G1 X145.847 Y56.367 E8.89062
G1 X145.293 Y56.784 E8.91049
G1 X144.902 Y57.011 E8.92345
G1 X144.532 Y57.182 E8.93514
G1 X143.907 Y57.392 E8.95403
G1 X143.625 Y57.457 E8.96233
G1 X143.177 Y57.524 E8.97533
G1 X59.845 Y63.388 E11.37030
G1 X59.228 Y63.388 E11.38800
G1 X58.615 Y63.350 E11.40559
G1 X18.889 Y58.678 E12.55235
G1 X18.232 Y58.564 E12.57148
G1 X17.643 Y58.378 E12.58917
G1 X17.261 Y58.210 E12.60115
G1 X16.894 Y58.010 E12.61312
G1 X16.374 Y57.645 E12.63134
G1 X16.060 Y57.370 E12.64332
G1 X15.771 Y57.068 E12.65529
G1 X15.510 Y56.742 E12.66727
G1 X15.278 Y56.394 E12.67924
G1 X14.993 Y55.847 E12.69694
G1 X14.842 Y55.458 E12.70891
G1 X14.724 Y55.057 E12.72088
G1 X14.643 Y54.647 E12.73285
G1 X14.597 Y54.232 E12.74483
G1 X14.597 Y25.596 E13.56579
G1 X14.643 Y25.181 E13.57777
G1 X14.776 Y24.579 E13.59545
G1 X14.910 Y24.183 E13.60744
G1 X15.179 Y23.607 E13.62565
G1 X15.396 Y23.250 E13.63763
G1 X15.771 Y22.761 E13.65532
G1 X16.060 Y22.459 E13.66729
G1 X16.499 Y22.087 E13.68380
G1 E9.68380 F600.00000
G92 E0
G1 Z0.625 F3000.000
G1 X127.334 Y28.850 F3000.000
G1 Z0.225 F3000.000
G1 E4.00000 F600.00000
G1 F900
G1 X128.170 Y28.801 E4.02400
G1 X128.640 Y28.813 E4.03748
G1 X129.489 Y28.912 E4.06198
G1 X129.927 Y29.003 E4.07480
G1 X130.751 Y29.250 E4.09948
G1 X131.548 Y29.593 E4.12434
G1 X132.273 Y30.011 E4.14834
G1 X132.659 Y30.280 E4.16182
G1 X133.319 Y30.833 E4.18652
G1 X133.914 Y31.464 E4.21138
G1 X134.432 Y32.160 E4.23625
G1 X134.862 Y32.905 E4.26093
G1 X135.051 Y33.311 E4.27375
G1 X135.346 Y34.119 E4.29842
G1 X135.546 Y34.963 E4.32329
G1 X135.646 Y35.818 E4.34796
G1 X135.659 Y36.265 E4.36078
G1 X135.609 Y37.125 E4.38546
G1 X135.458 Y37.979 E4.41033
G1 X135.211 Y38.803 E4.43500
G1 X135.046 Y39.219 E4.44782
G1 X134.660 Y39.988 E4.47249
G1 X134.201 Y40.688 E4.49649
G1 X133.910 Y41.057 E4.50997
G1 X133.319 Y41.684 E4.53467
G1 X132.660 Y42.237 E4.55934
G1 X132.293 Y42.494 E4.57216
G1 X131.548 Y42.924 E4.59683
G1 X130.780 Y43.256 E4.62083
G1 X130.334 Y43.405 E4.63431
G1 X129.496 Y43.604 E4.65901
G1 X128.641 Y43.704 E4.68368
G1 X128.194 Y43.717 E4.69650
G1 X127.341 Y43.667 E4.72099
G1 X126.899 Y43.602 E4.73381
G1 X126.061 Y43.404 E4.75848
G1 X125.246 Y43.107 E4.78335
G1 X124.471 Y42.718 E4.80822
G1 X123.747 Y42.242 E4.83308
G1 X123.105 Y41.704 E4.85708
G1 X122.771 Y41.373 E4.87056
G1 X122.222 Y40.718 E4.89506
G1 X121.965 Y40.351 E4.90788
G1 X121.535 Y39.606 E4.93255
G1 X121.203 Y38.838 E4.95655
G1 X121.056 Y38.398 E4.96984
G1 X120.932 Y37.936 E4.98355
G1 X120.854 Y37.546 E4.99497
G1 X120.757 Y36.723 E5.01873
G1 X120.742 Y36.253 E5.03221
G1 X120.792 Y35.393 E5.05691
G1 X120.937 Y34.568 E5.08090
G1 X121.057 Y34.114 E5.09439
G1 X121.352 Y33.304 E5.11908
G1 X121.738 Y32.535 E5.14376
G1 X121.973 Y32.155 E5.15658
G1 X122.483 Y31.470 E5.18106
G1 X122.780 Y31.136 E5.19388
G1 X123.406 Y30.545 E5.21856
G1 X124.102 Y30.027 E5.24342
G1 X124.826 Y29.608 E5.26742
G1 X125.252 Y29.408 E5.28089
G1 X126.032 Y29.123 E5.30472
G1 X126.486 Y29.000 E5.31820
G1 X127.275 Y28.861 E5.34117
G1 X127.368 Y29.138 F3000.000
G1 F297
G1 X128.175 Y29.090 E5.36434
G1 X128.619 Y29.102 E5.37709
G1 X129.443 Y29.198 E5.40086
G1 X129.856 Y29.284 E5.41296
G1 X130.652 Y29.522 E5.43679
G1 X131.418 Y29.852 E5.46068
G1 X132.118 Y30.256 E5.48385
G1 X132.483 Y30.510 E5.49660
G1 X133.120 Y31.044 E5.52044
G1 X133.692 Y31.650 E5.54434
G1 X134.190 Y32.319 E5.56824
G1 X134.606 Y33.039 E5.59208
G1 X134.784 Y33.421 E5.60417
G1 X135.068 Y34.202 E5.62800
G1 X135.261 Y35.014 E5.65190
G1 X135.357 Y35.839 E5.67573
G1 X135.369 Y36.261 E5.68783
G1 X135.321 Y37.091 E5.71166
G1 X135.176 Y37.912 E5.73556
G1 X134.938 Y38.708 E5.75939
G1 X134.782 Y39.100 E5.77149
G1 X134.409 Y39.843 E5.79532
G1 X133.966 Y40.519 E5.81848
G1 X133.691 Y40.868 E5.83124
G1 X133.120 Y41.473 E5.85507
G1 X132.483 Y42.007 E5.87891
G1 X132.138 Y42.249 E5.89100
G1 X131.418 Y42.665 E5.91483
G1 X130.676 Y42.986 E5.93800
G1 X130.254 Y43.127 E5.95075
G1 X129.445 Y43.319 E5.97459
G1 X128.620 Y43.415 E5.99842
G1 X128.198 Y43.427 E6.01051
G1 X127.371 Y43.379 E6.03427
G1 X126.953 Y43.318 E6.04637
G1 X126.144 Y43.126 E6.07020
G1 X125.361 Y42.841 E6.09410
G1 X124.616 Y42.467 E6.11800
G1 X123.919 Y42.009 E6.14190
G1 X123.300 Y41.490 E6.16507
G1 X122.984 Y41.177 E6.17782
G1 X122.452 Y40.542 E6.20159
G1 X122.210 Y40.196 E6.21369
G1 X121.794 Y39.476 E6.23751
G1 X121.473 Y38.734 E6.26068
G1 X121.333 Y38.315 E6.27336
G1 X121.214 Y37.871 E6.28655
G1 X121.140 Y37.501 E6.29737
G1 X121.046 Y36.701 E6.32045
G1 X121.032 Y36.256 E6.33320
G1 X121.080 Y35.426 E6.35704
G1 X121.220 Y34.630 E6.38021
G1 X121.333 Y34.200 E6.39296
G1 X121.618 Y33.419 E6.41680
G1 X121.991 Y32.676 E6.44063
G1 X122.212 Y32.317 E6.45272
G1 X122.707 Y31.652 E6.47648
G1 X122.988 Y31.337 E6.48858
G1 X123.592 Y30.767 E6.51241
G1 X124.261 Y30.269 E6.53631
G1 X124.960 Y29.864 E6.55948
G1 X125.363 Y29.675 E6.57223
G1 X126.120 Y29.399 E6.59533
G1 X126.549 Y29.282 E6.60809
G1 X127.309 Y29.148 E6.63020
G1 X127.530 Y28.772 F3000.000
G1 E2.63020 F600.00000
G92 E0
G1 Z0.625 F3000.000
G1 X127.296 Y22.716 F3000.000
G1 Z0.225 F3000.000
G1 E4.00000 F600.00000
G1 F900
G1 X127.747 Y22.399 E4.01581
G1 X127.984 Y22.301 E4.02316
G1 X128.201 Y22.271 E4.02944
G1 X128.402 Y22.298 E4.03526
G1 X128.656 Y22.400 E4.04312
G1 X129.105 Y22.716 E4.05885
G1 X142.892 Y22.728 E4.45412
G1 X143.268 Y22.798 E4.46509
G1 X143.437 Y22.854 E4.47019
G1 X143.604 Y22.929 E4.47544
G1 X143.939 Y23.136 E4.48672
G1 X144.068 Y23.243 E4.49153
G1 X144.325 Y23.526 E4.50249
G1 X144.533 Y23.859 E4.51375
G1 X144.600 Y24.012 E4.51855
G1 X144.705 Y24.380 E4.52952
G1 X144.742 Y24.780 E4.54103
G1 X144.742 Y52.737 E5.34253
G1 X144.705 Y53.137 E5.35405
G1 X144.600 Y53.505 E5.36501
G1 X144.528 Y53.668 E5.37011
G1 X144.439 Y53.828 E5.37537
G1 X144.208 Y54.133 E5.38634
G1 X143.925 Y54.391 E5.39731
G1 X143.783 Y54.489 E5.40227
G1 X143.432 Y54.664 E5.41353
G1 X143.258 Y54.723 E5.41879
G1 X143.084 Y54.763 E5.42389
G1 X142.683 Y54.801 E5.43546
G1 X113.722 Y54.801 E6.26574
G1 X113.322 Y54.763 E6.27725
G1 X112.954 Y54.658 E6.28822
G1 X112.791 Y54.587 E6.29332
G1 X112.631 Y54.497 E6.29857
G1 X112.326 Y54.266 E6.30955
G1 X112.068 Y53.984 E6.32052
G1 X111.970 Y53.841 E6.32548
G1 X111.795 Y53.490 E6.33673
G1 X111.736 Y53.316 E6.34199
G1 X111.696 Y53.143 E6.34709
G1 X111.658 Y52.741 E6.35866
G1 X111.658 Y24.780 E7.16028
G1 X111.696 Y24.380 E7.17179
G1 X111.801 Y24.012 E7.18275
G1 X111.872 Y23.850 E7.18785
G1 X111.962 Y23.690 E7.19311
G1 X112.199 Y23.376 E7.20438
G1 X112.318 Y23.257 E7.20919
G1 X112.623 Y23.027 E7.22016
G1 X112.965 Y22.856 E7.23112
G1 X113.332 Y22.751 E7.24207
G1 X113.504 Y22.727 E7.24704
G1 X127.236 Y22.716 E7.64073
G1 X127.204 Y22.427 F3000.000
G1 F297
G1 X127.606 Y22.144 E7.65484
G1 X127.907 Y22.019 E7.66418
G1 X128.201 Y21.979 E7.67266
G1 X128.476 Y22.017 E7.68064
G1 X128.795 Y22.144 E7.69049
G1 X129.197 Y22.427 E7.70457
G1 X142.919 Y22.438 E8.09798
G1 X143.341 Y22.517 E8.11028
G1 X143.541 Y22.585 E8.11634
G1 X143.740 Y22.672 E8.12257
G1 X144.108 Y22.901 E8.13498
G1 X144.268 Y23.033 E8.14094
G1 X144.557 Y23.350 E8.15324
G1 X144.789 Y23.724 E8.16585
G1 X144.873 Y23.914 E8.17180
G1 X144.990 Y24.327 E8.18411
G1 X145.032 Y24.766 E8.19677
G1 X145.032 Y52.751 E8.99906
G1 X144.990 Y53.191 E9.01172
G1 X144.873 Y53.603 E9.02402
G1 X144.788 Y53.797 E9.03009
G1 X144.682 Y53.986 E9.03631
G1 X144.423 Y54.329 E9.04861
G1 X144.106 Y54.618 E9.06092
G1 X143.930 Y54.739 E9.06703
G1 X143.543 Y54.932 E9.07944
G1 X143.337 Y55.001 E9.08566
G1 X143.131 Y55.049 E9.09173
G1 X142.696 Y55.090 E9.10425
G1 X113.708 Y55.090 E9.93531
G1 X113.269 Y55.049 E9.94797
G1 X112.856 Y54.931 E9.96027
G1 X112.662 Y54.846 E9.96634
G1 X112.473 Y54.740 E9.97256
G1 X112.130 Y54.481 E9.98487
G1 X111.841 Y54.164 E9.99717
G1 X111.720 Y53.988 E10.00328
G1 X111.527 Y53.601 E10.01569
G1 X111.458 Y53.395 E10.02191
G1 X111.410 Y53.189 E10.02798
G1 X111.369 Y52.754 E10.04050
G1 X111.369 Y24.766 E10.84289
G1 X111.410 Y24.327 E10.85555
G1 X111.528 Y23.914 E10.86786
G1 X111.613 Y23.720 E10.87392
G1 X111.719 Y23.531 E10.88014
G1 X111.980 Y23.186 E10.89256
G1 X112.127 Y23.039 E10.89852
G1 X112.470 Y22.780 E10.91082
G1 X112.860 Y22.585 E10.92332
G1 X113.272 Y22.467 E10.93562
G1 X113.483 Y22.438 E10.94173
G1 X127.144 Y22.427 E11.33337
G1 X127.526 Y22.665 F3000.000
G1 E7.33337 F600.00000
G92 E0
G1 Z0.625 F3000.000
G1 X112.396 Y23.588 F3000.000
G1 Z0.225 F3000.000
G1 E4.00000 F600.00000
G1 F720
G1 X112.305 Y23.679 E4.00373
G1 X112.621 Y23.363 E4.01660
G1 X112.888 Y23.161 E4.02623
G1 X113.182 Y23.014 E4.03568
G1 X113.459 Y22.935 E4.04395
G1 X111.877 Y24.517 E4.10829
G1 X111.835 Y24.969 E4.12135
G1 X113.901 Y22.904 E4.20536
G1 X114.312 Y22.903 E4.21717
G1 X111.835 Y25.380 E4.31787
G1 X111.835 Y25.790 E4.32967
G1 X114.722 Y22.903 E4.44708
G1 X115.133 Y22.903 E4.45888
G1 X111.835 Y26.200 E4.59298
G1 X111.835 Y26.610 E4.60478
G1 X115.543 Y22.902 E4.75557
G1 X115.954 Y22.902 E4.76738
G1 X111.835 Y27.021 E4.93487
G1 X111.835 Y27.431 E4.94667
G1 X116.364 Y22.902 E5.13086
G1 X116.775 Y22.901 E5.14266
G1 X111.835 Y27.841 E5.34355
G1 X111.835 Y28.251 E5.35534
G1 X117.185 Y22.901 E5.57292
G1 X117.596 Y22.901 E5.58473
G1 X111.835 Y28.662 E5.81900
G1 X111.835 Y29.072 E5.83080
G1 X118.007 Y22.900 E6.08177
G1 X118.417 Y22.900 E6.09358
G1 X111.835 Y29.482 E6.36124
G1 X111.835 Y29.892 E6.37304
G1 X118.828 Y22.900 E6.65740
G1 X119.238 Y22.899 E6.66921
G1 X111.835 Y30.303 E6.97027
G1 X111.835 Y30.713 E6.98206
G1 X119.649 Y22.899 E7.29982
G1 X120.059 Y22.899 E7.31162
G1 X111.835 Y31.123 E7.64608
G1 X111.835 Y31.533 E7.65787
G1 X120.470 Y22.899 E8.00902
G1 X120.881 Y22.898 E8.02082
G1 X111.835 Y31.944 E8.38867
G1 X111.835 Y32.354 E8.40046
G1 X121.291 Y22.898 E8.78500
G1 X121.702 Y22.898 E8.79681
G1 X111.835 Y32.764 E9.19804
G1 X111.835 Y33.174 E9.20984
G1 X122.112 Y22.897 E9.62777
G1 X122.523 Y22.897 E9.63957
G1 X111.835 Y33.585 E10.07420
G1 X111.835 Y33.995 E10.08599
G1 X122.933 Y22.897 E10.53731
G1 X123.344 Y22.896 E10.54912
G1 X111.835 Y34.405 E11.01714
G1 X111.835 Y34.815 E11.02893
G1 X123.754 Y22.896 E11.51365
G1 X124.165 Y22.896 E11.52545
G1 X111.835 Y35.225 E12.02686
G1 X111.835 Y35.636 E12.03866
G1 X124.576 Y22.895 E12.55676
G1 X124.986 Y22.895 E12.56857
G1 X111.835 Y36.046 E13.10337
G1 X111.835 Y36.456 E13.11516
G1 X125.397 Y22.895 E13.66666
G1 X125.807 Y22.894 E13.67847
G1 X111.835 Y36.866 E14.24666
G1 X111.835 Y37.277 E14.25846
G1 X126.218 Y22.894 E14.84334
G1 X126.628 Y22.894 E14.85515
G1 X111.835 Y37.687 E15.45673
G1 X111.835 Y38.097 E15.46853
G1 X127.039 Y22.893 E16.08681
G1 X127.449 Y22.893 E16.09861
G1 X111.835 Y38.507 E16.73359
G1 X111.835 Y38.918 E16.74539
G1 X128.301 Y22.452 E17.41498
G1 X128.440 Y22.468 E17.41901
G1 X128.622 Y22.541 E17.42466
G1 X111.835 Y39.328 E18.10734
G1 X111.835 Y39.738 E18.11914
G1 X128.864 Y22.709 E18.81165
G1 X129.105 Y22.879 E18.82012
G1 X111.835 Y40.148 E19.52241
G1 X111.835 Y40.559 E19.53421
G1 X129.500 Y22.893 E20.25259
G1 X129.910 Y22.894 E20.26438
G1 X111.835 Y40.969 E20.99943
G1 X111.835 Y41.379 E21.01122
G1 X130.320 Y22.894 E21.76294
G1 X130.730 Y22.894 E21.77473
G1 X123.427 Y30.197 E22.07172
G1 X123.830 Y29.898 E22.08615
G1 X124.559 Y29.476 E22.11037
G1 X131.140 Y22.895 E22.37800
G1 X131.550 Y22.895 E22.38979
G1 X125.286 Y29.159 E22.64452
G1 X125.919 Y28.936 E22.66382
G1 X131.960 Y22.895 E22.90947
G1 X132.370 Y22.896 E22.92126
G1 X126.462 Y28.803 E23.16149
G1 X126.960 Y28.715 E23.17603
G1 X132.780 Y22.896 E23.41267
G1 X133.190 Y22.896 E23.42446
G1 X127.425 Y28.661 E23.65889
G1 X127.861 Y28.635 E23.67145
G1 X133.599 Y22.897 E23.90482
G1 X134.009 Y22.897 E23.91661
G1 X128.277 Y28.630 E24.14974
G1 X128.666 Y28.651 E24.16095
G1 X134.419 Y22.897 E24.39492
G1 X134.829 Y22.898 E24.40670
G1 X129.033 Y28.694 E24.64240
G1 X129.401 Y28.737 E24.65303
G1 X135.239 Y22.898 E24.89046
G1 X135.649 Y22.898 E24.90225
G1 X129.742 Y28.805 E25.14246
G1 X130.068 Y28.889 E25.15214
G1 X136.059 Y22.899 E25.39576
G1 X136.469 Y22.899 E25.40754
G1 X130.384 Y28.984 E25.65499
G1 X130.700 Y29.078 E25.66447
G1 X136.879 Y22.899 E25.91575
G1 X137.289 Y22.900 E25.92754
G1 X130.990 Y29.199 E26.18369
G1 X131.276 Y29.322 E26.19266
G1 X137.699 Y22.900 E26.45383
G1 X138.108 Y22.900 E26.46561
G1 X131.563 Y29.446 E26.73179
G1 X131.824 Y29.596 E26.74043
G1 X138.518 Y22.901 E27.01269
G1 X138.928 Y22.901 E27.02447
G1 X132.084 Y29.746 E27.30282
G1 X132.342 Y29.898 E27.31143
G1 X139.338 Y22.901 E27.59594
G1 X139.748 Y22.902 E27.60773
G1 X132.584 Y30.066 E27.89907
G1 X132.818 Y30.242 E27.90749
G1 X140.158 Y22.902 E28.20599
G1 X140.568 Y22.902 E28.21777
G1 X133.041 Y30.429 E28.52387
G1 X133.264 Y30.617 E28.53224
G1 X140.978 Y22.903 E28.84594
G1 X141.388 Y22.903 E28.85772
G1 X133.478 Y30.813 E29.17937
G1 X133.677 Y31.024 E29.18772
G1 X141.798 Y22.903 E29.51794
G1 X142.208 Y22.904 E29.52972
G1 X133.877 Y31.235 E29.86852
G1 X134.069 Y31.452 E29.87687
G1 X142.617 Y22.904 E30.22449
G1 X143.020 Y22.912 E30.23605
G1 X134.245 Y31.687 E30.59290
G1 X134.420 Y31.922 E30.60133
G1 X143.359 Y22.983 E30.96486
G1 X143.642 Y23.110 E30.97378
G1 X134.590 Y32.162 E31.34190
G1 X134.740 Y32.422 E31.35053
G1 X143.894 Y23.269 E31.72278
G1 X143.980 Y23.340 E31.72600
G1 X144.100 Y23.472 E31.73114
G1 X134.890 Y32.682 E32.10568
G1 X135.036 Y32.947 E32.11437
G1 X144.278 Y23.705 E32.49022
G1 X144.426 Y23.967 E32.49888
G1 X135.166 Y33.227 E32.87544
G1 X135.282 Y33.521 E32.88454
G1 X144.521 Y24.282 E33.26024
G1 X144.563 Y24.651 E33.27090
G1 X135.392 Y33.822 E33.64385
G1 X135.501 Y34.123 E33.65305
G1 X144.566 Y25.058 E34.02167
G1 X144.566 Y25.468 E34.03347
G1 X135.583 Y34.452 E34.39878
G1 X135.661 Y34.783 E34.40858
G1 X144.566 Y25.879 E34.77070
G1 X144.566 Y26.289 E34.78249
G1 X135.730 Y35.124 E35.14180
G1 X135.773 Y35.492 E35.15243
G1 X144.566 Y26.699 E35.51000
G1 X144.566 Y27.109 E35.52179
G1 X135.816 Y35.859 E35.87761
G1 X135.832 Y36.253 E35.88896
G1 X144.566 Y27.520 E36.24413
G1 X144.566 Y27.930 E36.25593
G1 X135.819 Y36.677 E36.61164
G1 X135.793 Y37.113 E36.62419
G1 X144.566 Y28.340 E36.98094
G1 X144.566 Y28.750 E36.99273
G1 X135.728 Y37.588 E37.35213
G1 X135.640 Y38.086 E37.36668
G1 X144.566 Y29.161 E37.72965
G1 X144.566 Y29.571 E37.74144
G1 X135.477 Y38.659 E38.11103
G1 X135.372 Y39.011 E38.12159
G1 X135.264 Y39.283 E38.13000
G1 X144.566 Y29.981 E38.50826
G1 X144.566 Y30.391 E38.52006
