; generated by Slic3r 1.3.0 on 2020-04-01 at 19:30:11

; external perimeters extrusion width = 0.44mm (0.61mm^3/s)
; perimeters extrusion width = 0.56mm (2.38mm^3/s)
; infill extrusion width = 0.50mm (2.11mm^3/s)
; solid infill extrusion width = 0.56mm (1.90mm^3/s)
; top infill extrusion width = 0.56mm (0.95mm^3/s)

M190 S70 ; set bed temperature and wait for it to be reached
M104 S240 ; set temperature
M106 S255 ; Turn on extr fan
G28 ; home all axes
;G1 Z5 F5000 ; lift nozzle

; Filament gcode

M109 S240 ; set temperature and wait for it to be reached
G21 ; set units to millimeters
G90 ; use absolute coordinates
M82 ; use absolute distances for extrusion
G92 E0
M106 S255
;G28 X0  ; home X axis
;G28 Y0  ; home Y axis

G1 E-4.00000 F600.00000
G92 E0
G1 Z0.400 F3000.000
G1 X51.722 Y30.611 F3000.000
G1 Z0.225 F3000.000
G1 E4.00000 F600.00000
G1 F450
G1 X52.805 Y29.465 E4.04265
G1 X54.486 Y28.981 E4.08997
G1 X60.486 Y28.981 E4.25229
G1 X62.012 Y29.374 E4.29494
G1 X63.158 Y30.457 E4.33760
G1 X63.643 Y32.138 E4.38491
G1 X63.643 Y47.138 E4.79072
G1 X63.249 Y48.664 E4.83338
G1 X62.166 Y49.810 E4.87603
G1 X60.486 Y50.294 E4.92334
G1 X54.486 Y50.294 E5.08567
G1 X52.959 Y49.901 E5.12832
G1 X51.813 Y48.818 E5.17097
G1 X51.329 Y47.138 E5.21828
G1 X51.329 Y32.138 E5.62410
G1 X51.707 Y30.669 E5.66513
G1 X52.011 Y30.689 F3000.000
G1 F450
G1 X53.082 Y29.637 E5.70575
G1 X54.486 Y29.270 E5.74499
G1 X60.486 Y29.270 E5.90731
G1 X61.935 Y29.663 E5.94793
G1 X62.987 Y30.734 E5.98855
G1 X63.353 Y32.138 E6.02779
G1 X63.353 Y47.138 E6.43360
G1 X62.960 Y48.587 E6.47422
G1 X61.889 Y49.638 E6.51484
G1 X60.486 Y50.005 E6.55408
G1 X54.486 Y50.005 E6.71641
G1 X53.037 Y49.612 E6.75703
G1 X51.985 Y48.541 E6.79764
G1 X51.618 Y47.138 E6.83689
G1 X51.618 Y32.138 E7.24270
G1 X51.995 Y30.746 E7.28170
G1 X52.299 Y30.771 F3000.000
G1 F450
G1 X53.357 Y29.819 E7.32017
G1 X54.486 Y29.559 E7.35151
G1 X60.486 Y29.559 E7.51384
G1 X61.853 Y29.951 E7.55232
G1 X62.804 Y31.009 E7.59079
G1 X63.064 Y32.138 E7.62213
G1 X63.064 Y47.138 E8.02795
G1 X62.672 Y48.505 E8.06643
G1 X61.614 Y49.456 E8.10490
G1 X60.486 Y49.716 E8.13624
G1 X54.486 Y49.716 E8.29857
G1 X53.119 Y49.324 E8.33705
G1 X52.167 Y48.266 E8.37552
G1 X51.907 Y47.138 E8.40686
G1 X51.907 Y32.138 E8.81268
G1 X52.283 Y30.828 E8.84953
G1 X52.588 Y30.858 F3000.000
G1 F450
G1 X53.628 Y30.015 E8.88574
G1 X54.486 Y29.848 E8.90939
G1 X60.486 Y29.848 E9.07171
G1 X61.766 Y30.240 E9.10792
G1 X62.608 Y31.280 E9.14413
G1 X62.775 Y32.138 E9.16778
G1 X62.775 Y47.138 E9.57359
G1 X62.384 Y48.418 E9.60980
G1 X61.344 Y49.260 E9.64601
G1 X60.486 Y49.427 E9.66966
G1 X54.486 Y49.427 E9.83198
G1 X53.206 Y49.036 E9.86819
G1 X52.363 Y47.996 E9.90440
G1 X52.196 Y47.138 E9.92805
G1 X52.196 Y32.138 E10.33386
G1 X52.570 Y30.915 E10.36845
G1 E6.36845 F600.00000
G92 E0
G1 Z0.625 F3000.000
G1 X60.028 Y46.680 F3000.000
G1 Z0.225 F3000.000
G1 E4.00000 F600.00000
G1 F594
G1 X54.944 Y46.680 E4.13755
G1 X54.944 Y32.596 E4.51858
G1 X60.028 Y32.596 E4.65613
G1 X60.028 Y46.620 E5.03554
G1 X60.317 Y46.969 F3000.000
G1 F594
G1 X54.654 Y46.969 E5.18873
G1 X54.654 Y32.306 E5.58542
G1 X60.317 Y32.306 E5.73861
G1 X60.317 Y46.909 E6.13367
G1 X59.949 Y46.813 F3000.000
G1 X59.626 Y46.503 F3000.000
G1 F720
G1 X59.851 Y46.278 E6.14229
G1 X59.851 Y45.868 E6.15338
G1 X59.217 Y46.503 E6.17767
G1 X58.807 Y46.503 E6.18875
G1 X59.851 Y45.459 E6.22872
G1 X59.851 Y45.050 E6.23981
G1 X58.398 Y46.503 E6.29545
G1 X57.989 Y46.503 E6.30653
G1 X59.851 Y44.640 E6.37785
G1 X59.851 Y44.231 E6.38893
G1 X57.579 Y46.503 E6.47592
G1 X57.170 Y46.503 E6.48701
G1 X59.851 Y43.822 E6.58967
G1 X59.851 Y43.412 E6.60076
G1 X56.760 Y46.503 E6.71910
G1 X56.351 Y46.503 E6.73018
G1 X59.851 Y43.003 E6.86419
G1 X59.851 Y42.594 E6.87528
G1 X55.942 Y46.503 E7.02497
G1 X55.532 Y46.503 E7.03605
G1 X59.851 Y42.184 E7.20141
G1 X59.851 Y41.775 E7.21250
G1 X55.120 Y46.503 E7.39359
G1 X55.120 Y46.096 E7.40460
G1 X59.851 Y41.366 E7.58574
G1 X59.851 Y40.956 E7.59682
G1 X55.120 Y45.687 E7.77797
G1 X55.120 Y45.278 E7.78905
G1 X59.851 Y40.547 E7.97019
G1 X59.851 Y40.138 E7.98128
G1 X55.120 Y44.868 E8.16242
G1 X55.120 Y44.459 E8.17351
G1 X59.851 Y39.728 E8.35465
G1 X59.851 Y39.319 E8.36573
G1 X55.120 Y44.050 E8.54688
G1 X55.120 Y43.640 E8.55796
G1 X59.851 Y38.910 E8.73910
G1 X59.851 Y38.500 E8.75019
G1 X55.120 Y43.231 E8.93133
G1 X55.120 Y42.822 E8.94241
G1 X59.851 Y38.091 E9.12356
G1 X59.851 Y37.682 E9.13464
G1 X55.120 Y42.412 E9.31579
G1 X55.120 Y42.003 E9.32687
G1 X59.851 Y37.272 E9.50801
G1 X59.851 Y36.863 E9.51910
G1 X55.120 Y41.594 E9.70024
G1 X55.120 Y41.184 E9.71132
G1 X59.851 Y36.454 E9.89247
G1 X59.851 Y36.044 E9.90355
G1 X55.120 Y40.775 E10.08469
G1 X55.120 Y40.366 E10.09578
G1 X59.851 Y35.635 E10.27692
G1 X59.851 Y35.226 E10.28801
G1 X55.120 Y39.956 E10.46915
G1 X55.120 Y39.547 E10.48023
G1 X59.851 Y34.816 E10.66138
G1 X59.851 Y34.407 E10.67246
G1 X55.120 Y39.138 E10.85360
G1 X55.120 Y38.728 E10.86469
G1 X59.851 Y33.998 E11.04583
G1 X59.851 Y33.588 E11.05691
G1 X55.120 Y38.319 E11.23806
G1 X55.120 Y37.910 E11.24914
G1 X59.851 Y33.179 E11.43029
G1 X59.848 Y32.772 E11.44129
G1 X55.120 Y37.500 E11.62233
G1 X55.120 Y37.091 E11.63342
G1 X59.439 Y32.772 E11.79878
G1 X59.030 Y32.772 E11.80986
G1 X55.120 Y36.681 E11.95955
G1 X55.120 Y36.272 E11.97064
G1 X58.620 Y32.772 E12.10465
G1 X58.211 Y32.772 E12.11573
G1 X55.120 Y35.863 E12.23407
G1 X55.120 Y35.453 E12.24516
G1 X57.802 Y32.772 E12.34782
G1 X57.392 Y32.772 E12.35891
G1 X55.120 Y35.044 E12.44590
G1 X55.120 Y34.635 E12.45698
G1 X56.983 Y32.772 E12.52830
G1 X56.573 Y32.772 E12.53938
G1 X55.120 Y34.225 E12.59503
G1 X55.120 Y33.816 E12.60611
G1 X56.164 Y32.772 E12.64608
G1 X55.755 Y32.772 E12.65716
G1 X55.120 Y33.407 E12.68146
G1 X55.120 Y32.997 E12.69254
G1 X55.345 Y32.772 E12.70116
M104 S230 ; set temperature
M140 S60 ; set bed temperature
;G28 X0  ; home X axis
;G28 Y0  ; home Y axis

G1 E8.70116 F600.00000
G92 E0
G1 Z0.625 F3000.000
G1 X59.798 Y46.450 F3000.000
G1 Z0.375 F3000.000
G1 E4.00000 F600.00000
G1 F1188
G1 X55.173 Y46.450 E4.15221
G1 X55.173 Y32.825 E4.60067
G1 X59.798 Y32.825 E4.75289
G1 X59.798 Y46.390 E5.19937
G1 X60.266 Y46.918 F3000.000
G1 F1188
G1 X54.706 Y46.918 E5.34077
G1 X54.706 Y32.358 E5.71106
G1 X60.266 Y32.358 E5.85246
G1 X60.266 Y46.858 E6.22123
G1 X59.898 Y46.761 F3000.000
G1 E2.22123 F600.00000
G92 E0
G1 Z0.775 F3000.000
G1 X55.907 Y46.127 F3000.000
G1 Z0.375 F3000.000
G1 E4.00000 F600.00000
G1 F1440
G1 X55.496 Y45.717 E4.01967
G1 X55.496 Y44.948 E4.04571
G1 X56.675 Y46.127 E4.10222
G1 X57.444 Y46.127 E4.12826
G1 X55.496 Y44.180 E4.22159
G1 X55.496 Y43.411 E4.24763
G1 X58.212 Y46.127 E4.37779
G1 X58.980 Y46.127 E4.40383
G1 X55.496 Y42.643 E4.57081
G1 X55.496 Y41.874 E4.59685
G1 X59.475 Y45.854 E4.78755
G1 X59.475 Y45.085 E4.81359
G1 X55.496 Y41.106 E5.00429
G1 X55.496 Y40.337 E5.03033
G1 X59.475 Y44.317 E5.22103
G1 X59.475 Y43.548 E5.24707
G1 X55.496 Y39.569 E5.43777
G1 X55.496 Y38.801 E5.46381
G1 X59.475 Y42.780 E5.65451
G1 X59.475 Y42.011 E5.68055
G1 X55.496 Y38.032 E5.87125
G1 X55.496 Y37.264 E5.89729
G1 X59.475 Y41.243 E6.08799
G1 X59.475 Y40.475 E6.11403
G1 X55.496 Y36.495 E6.30473
G1 X55.496 Y35.727 E6.33076
G1 X59.475 Y39.706 E6.52146
G1 X59.475 Y38.938 E6.54750
G1 X55.496 Y34.958 E6.73820
G1 X55.496 Y34.190 E6.76424
G1 X59.475 Y38.169 E6.95494
G1 X59.475 Y37.401 E6.98098
G1 X55.496 Y33.421 E7.17168
G1 X55.496 Y33.148 E7.18095
G1 X55.991 Y33.148 E7.19772
G1 X59.475 Y36.632 E7.36470
G1 X59.475 Y35.864 E7.39074
G1 X56.759 Y33.148 E7.52090
G1 X57.528 Y33.148 E7.54694
G1 X59.475 Y35.095 E7.64027
G1 X59.475 Y34.327 E7.66631
G1 X58.296 Y33.148 E7.72282
G1 X59.065 Y33.148 E7.74886
G1 X59.475 Y33.559 E7.76854
;G28 X0  ; home X axis
;G28 Y0  ; home Y axis

G1 E3.76854 F600.00000
G92 E0
G1 Z0.775 F3000.000
G1 X59.798 Y46.450 F3000.000
G1 Z0.525 F3000.000
G1 E4.00000 F600.00000
G1 F1188
G1 X55.173 Y46.450 E4.15221
G1 X55.173 Y32.825 E4.60067
G1 X59.798 Y32.825 E4.75289
G1 X59.798 Y46.390 E5.19937
G1 X60.266 Y46.918 F3000.000
G1 F1188
G1 X54.706 Y46.918 E5.34077
G1 X54.706 Y32.358 E5.71106
G1 X60.266 Y32.358 E5.85246
G1 X60.266 Y46.858 E6.22123
G1 X59.898 Y46.761 F3000.000
G1 E2.22123 F600.00000
G92 E0
G1 Z0.925 F3000.000
G1 X59.494 Y44.245 F3000.000
G1 Z0.525 F3000.000
G1 E4.00000 F600.00000
G1 F1800
G1 X57.593 Y46.146 E4.07840
G1 E0.07840 F600.00000
G92 E0
G1 Z0.925 F3000.000
G1 X55.478 Y44.245 F3000.000
G1 Z0.525 F3000.000
G1 E4.00000 F600.00000
G1 F1800
G1 X57.378 Y46.146 E4.07840
G1 X59.494 Y46.146 E4.14012
G1 X59.494 Y41.646 E4.27141
G1 X55.478 Y37.630 E4.43710
G1 X55.478 Y33.130 E4.56838
G1 X57.593 Y33.130 E4.63011
G1 X59.494 Y35.030 E4.70851
G1 E0.70851 F600.00000
G92 E0
G1 Z0.925 F3000.000
G1 X59.494 Y37.630 F3000.000
G1 Z0.525 F3000.000
G1 E4.00000 F600.00000
G1 F1800
G1 X55.478 Y41.646 E4.16569
G1 E0.16569 F600.00000
G92 E0
G1 Z0.925 F3000.000
G1 X55.478 Y35.030 F3000.000
G1 Z0.525 F3000.000
G1 E4.00000 F600.00000
G1 F1800
G1 X57.378 Y33.130 E4.07840
;G28 X0  ; home X axis
;G28 Y0  ; home Y axis

G1 E0.07840 F600.00000
G92 E0
G1 Z0.925 F3000.000
G1 X59.798 Y46.450 F3000.000
G1 Z0.675 F3000.000
G1 E4.00000 F600.00000
G1 F1188
G1 X55.173 Y46.450 E4.15221
G1 X55.173 Y32.825 E4.60067
G1 X59.798 Y32.825 E4.75289
G1 X59.798 Y46.390 E5.19937
G1 X60.266 Y46.918 F3000.000
G1 F1188
G1 X54.706 Y46.918 E5.34077
G1 X54.706 Y32.358 E5.71106
G1 X60.266 Y32.358 E5.85246
G1 X60.266 Y46.858 E6.22123
G1 X59.898 Y46.761 F3000.000
G1 E2.22123 F600.00000
G92 E0
G1 Z1.075 F3000.000
G1 X59.494 Y44.245 F3000.000
G1 Z0.675 F3000.000
G1 E4.00000 F600.00000
G1 F1800
G1 X57.593 Y46.146 E4.07840
G1 E0.07840 F600.00000
G92 E0
G1 Z1.075 F3000.000
G1 X55.478 Y44.245 F3000.000
G1 Z0.675 F3000.000
G1 E4.00000 F600.00000
G1 F1800
G1 X57.378 Y46.146 E4.07840
G1 X59.494 Y46.146 E4.14012
G1 X59.494 Y41.646 E4.27141
G1 X55.478 Y37.630 E4.43710
G1 X55.478 Y33.130 E4.56838
G1 X57.593 Y33.130 E4.63011
G1 X59.494 Y35.030 E4.70851
G1 E0.70851 F600.00000
G92 E0
G1 Z1.075 F3000.000
G1 X59.494 Y37.630 F3000.000
G1 Z0.675 F3000.000
G1 E4.00000 F600.00000
G1 F1800
G1 X55.478 Y41.646 E4.16569
G1 E0.16569 F600.00000
G92 E0
G1 Z1.075 F3000.000
G1 X55.478 Y35.030 F3000.000
G1 Z0.675 F3000.000
G1 E4.00000 F600.00000
G1 F1800
G1 X57.378 Y33.130 E4.07840
;G28 X0  ; home X axis
;G28 Y0  ; home Y axis

G1 E0.07840 F600.00000
G92 E0
G1 Z1.075 F3000.000
G1 X59.798 Y46.450 F3000.000
G1 Z0.825 F3000.000
G1 E4.00000 F600.00000
G1 F1188
G1 X55.173 Y46.450 E4.15221
G1 X55.173 Y32.825 E4.60067
G1 X59.798 Y32.825 E4.75289
G1 X59.798 Y46.390 E5.19937
G1 X60.266 Y46.918 F3000.000
G1 F1188
G1 X54.706 Y46.918 E5.34077
G1 X54.706 Y32.358 E5.71106
G1 X60.266 Y32.358 E5.85246
G1 X60.266 Y46.858 E6.22123
G1 X59.898 Y46.761 F3000.000
G1 X59.119 Y46.151 F3000.000

G1 F1800
G1 X59.499 Y45.771 E6.25088
G1 X59.499 Y45.119 E6.28680
G1 X58.467 Y46.151 E6.36724
G1 X57.815 Y46.151 E6.40316
G1 X59.499 Y44.467 E6.53440
G1 X59.499 Y43.815 E6.57032
G1 X57.164 Y46.151 E6.75236
G1 X56.512 Y46.151 E6.78828
G1 X59.499 Y43.164 E7.02111
G1 X59.499 Y42.512 E7.05703
G1 X55.860 Y46.151 E7.34066
G1 X55.472 Y46.151 E7.36204
G1 X55.472 Y45.887 E7.37658
G1 X59.499 Y41.860 E7.69044
G1 X59.499 Y41.209 E7.72636
G1 X55.472 Y45.235 E8.04022
G1 X55.472 Y44.584 E8.07614
G1 X59.499 Y40.557 E8.39000
G1 X59.499 Y39.905 E8.42592
G1 X55.472 Y43.932 E8.73978
G1 X55.472 Y43.280 E8.77570
G1 X59.499 Y39.253 E9.08956
G1 X59.499 Y38.602 E9.12547
G1 X55.472 Y42.629 E9.43934
G1 X55.472 Y41.977 E9.47525
G1 X59.499 Y37.950 E9.78911
G1 X59.499 Y37.298 E9.82503
G1 X55.472 Y41.325 E10.13889
G1 X55.472 Y40.673 E10.17481
G1 X59.499 Y36.647 E10.48867
G1 X59.499 Y35.995 E10.52459
G1 X55.472 Y40.022 E10.83845
G1 X55.472 Y39.370 E10.87437
G1 X59.499 Y35.343 E11.18823
G1 X59.499 Y34.691 E11.22415
G1 X55.472 Y38.718 E11.53801
G1 X55.472 Y38.067 E11.57393
G1 X59.499 Y34.040 E11.88779
G1 X59.499 Y33.388 E11.92371
G1 X55.472 Y37.415 E12.23757
G1 X55.472 Y36.763 E12.27349
G1 X59.111 Y33.124 E12.55712
G1 X58.460 Y33.124 E12.59304
G1 X55.472 Y36.111 E12.82587
G1 X55.472 Y35.460 E12.86179
G1 X57.808 Y33.124 E13.04383
G1 X57.156 Y33.124 E13.07974
G1 X55.472 Y34.808 E13.21099
G1 X55.472 Y34.156 E13.24690
G1 X56.504 Y33.124 E13.32735
G1 X55.853 Y33.124 E13.36327
G1 X55.472 Y33.504 E13.39291

;G28 X0  ; home X axis
;G28 Y0  ; home Y axis

G1 E9.39291 F600.00000
G92 E0
G1 Z1.225 F3000.000
G1 X59.798 Y46.450 F3000.000
G1 Z0.975 F3000.000
G1 E4.00000 F600.00000
G1 F1188
G1 X55.173 Y46.450 E4.15221
G1 X55.173 Y32.825 E4.60067
G1 X59.798 Y32.825 E4.75289
G1 X59.798 Y46.390 E5.19937
G1 X60.266 Y46.918 F3000.000
G1 F1188
G1 X54.706 Y46.918 E5.34077
G1 X54.706 Y32.358 E5.71106
G1 X60.266 Y32.358 E5.85246
G1 X60.266 Y46.858 E6.22123
G1 X59.898 Y46.761 F3000.000
G1 E2.22123 F600.00000
G92 E0
G1 Z1.375 F3000.000
G1 X55.907 Y46.127 F3000.000
G1 Z0.975 F3000.000
G1 E4.00000 F600.00000
G1 F720
G1 X55.496 Y45.717 E4.01967
G1 X55.496 Y44.948 E4.04571
G1 X56.675 Y46.127 E4.10222
G1 X57.444 Y46.127 E4.12826
G1 X55.496 Y44.180 E4.22159
G1 X55.496 Y43.411 E4.24763
G1 X58.212 Y46.127 E4.37779
G1 X58.980 Y46.127 E4.40383
G1 X55.496 Y42.643 E4.57081
G1 X55.496 Y41.874 E4.59685
G1 X59.475 Y45.854 E4.78755
G1 X59.475 Y45.085 E4.81359
G1 X55.496 Y41.106 E5.00429
G1 X55.496 Y40.337 E5.03033
G1 X59.475 Y44.317 E5.22103
G1 X59.475 Y43.548 E5.24707
G1 X55.496 Y39.569 E5.43777
G1 X55.496 Y38.801 E5.46381
G1 X59.475 Y42.780 E5.65451
G1 X59.475 Y42.011 E5.68055
G1 X55.496 Y38.032 E5.87125
G1 X55.496 Y37.264 E5.89729
G1 X59.475 Y41.243 E6.08799
G1 X59.475 Y40.475 E6.11403
G1 X55.496 Y36.495 E6.30473
G1 X55.496 Y35.727 E6.33076
G1 X59.475 Y39.706 E6.52146
G1 X59.475 Y38.938 E6.54750
G1 X55.496 Y34.958 E6.73820
G1 X55.496 Y34.190 E6.76424
G1 X59.475 Y38.169 E6.95494
G1 X59.475 Y37.401 E6.98098
G1 X55.496 Y33.421 E7.17168
G1 X55.496 Y33.148 E7.18095
G1 X55.991 Y33.148 E7.19772
G1 X59.475 Y36.632 E7.36470
G1 X59.475 Y35.864 E7.39074
G1 X56.759 Y33.148 E7.52090
G1 X57.528 Y33.148 E7.54694
G1 X59.475 Y35.095 E7.64027
G1 X59.475 Y34.327 E7.66631
G1 X58.296 Y33.148 E7.72282
G1 X59.065 Y33.148 E7.74886
G1 X59.475 Y33.559 E7.76854
;G28 X0  ; home X axis
;G28 Y0  ; home Y axis

G1 E3.76854 F600.00000
G92 E0
G1 Z1.375 F3000.000
G1 X58.563 Y45.381 F3000.000
G1 Z1.125 F3000.000
G1 E4.00000 F600.00000
G1 F1188
G1 X58.412 Y45.563 E4.00779
G1 X58.220 Y45.723 E4.01601
G1 X57.960 Y45.859 E4.02566
G1 X57.722 Y45.926 E4.03381
G1 X57.486 Y45.947 E4.04161
G1 X57.250 Y45.926 E4.04941
G1 X57.021 Y45.862 E4.05721
G1 X56.799 Y45.754 E4.06535
G1 X56.559 Y45.565 E4.07541
G1 X56.370 Y45.324 E4.08547
G1 X56.261 Y45.102 E4.09362
G1 X56.198 Y44.874 E4.10142
G1 X56.176 Y44.638 E4.10922
G1 X56.198 Y44.402 E4.11701
G1 X56.265 Y44.161 E4.12523
G1 X56.401 Y43.902 E4.13488
G1 X56.560 Y43.712 E4.14303
G1 X56.750 Y43.553 E4.15117
G1 X57.011 Y43.416 E4.16089
G1 X57.249 Y43.350 E4.16902
G1 X57.498 Y43.327 E4.17724
G1 X57.789 Y43.363 E4.18689
G1 X58.023 Y43.444 E4.19504
G1 X58.229 Y43.560 E4.20284
G1 X58.412 Y43.712 E4.21064
G1 X58.563 Y43.894 E4.21844
G1 X58.680 Y44.100 E4.22624
G1 X58.760 Y44.334 E4.23439
G1 X58.796 Y44.627 E4.24410
G1 X58.773 Y44.884 E4.25259
G1 X58.685 Y45.166 E4.26231
G1 X58.593 Y45.329 E4.26848
G1 X58.950 Y45.648 F3000.000
G1 F1188
G1 X58.744 Y45.896 E4.27667
G1 X58.492 Y46.105 E4.28500
G1 X58.313 Y46.213 E4.29032
G1 X58.120 Y46.300 E4.29570
G1 X57.806 Y46.388 E4.30398
G1 X57.486 Y46.417 E4.31217
G1 X57.165 Y46.388 E4.32036
G1 X56.855 Y46.301 E4.32855
G1 X56.562 Y46.159 E4.33682
G1 X56.388 Y46.038 E4.34220
G1 X56.227 Y45.896 E4.34767
G1 X56.085 Y45.735 E4.35313
G1 X55.965 Y45.561 E4.35851
G1 X55.822 Y45.268 E4.36679
G1 X55.736 Y44.958 E4.37498
G1 X55.707 Y44.638 E4.38317
G1 X55.736 Y44.317 E4.39135
G1 X55.824 Y44.002 E4.39969
G1 X55.910 Y43.811 E4.40501
G1 X56.019 Y43.630 E4.41039
G1 X56.228 Y43.380 E4.41867
G1 X56.478 Y43.171 E4.42694
G1 X56.659 Y43.062 E4.43232
G1 X56.852 Y42.975 E4.43770
G1 X57.165 Y42.888 E4.44597
G1 X57.491 Y42.858 E4.45430
G1 X57.700 Y42.871 E4.45963
G1 X57.908 Y42.909 E4.46501
G1 X58.216 Y43.015 E4.47329
G1 X58.496 Y43.173 E4.48147
G1 X58.744 Y43.380 E4.48966
