; generated by Slic3r 1.3.0 on 2020-03-24 at 22:19:11

; external perimeters extrusion width = 0.16mm (0.23mm^3/s)
; perimeters extrusion width = 0.56mm (3.10mm^3/s)
; infill extrusion width = 0.50mm (2.74mm^3/s)
; solid infill extrusion width = 0.56mm (2.48mm^3/s)
; top infill extrusion width = 0.56mm (1.24mm^3/s)

M190 S80 ; set bed temperature and wait for it to be reached
M104 S250 ; set temperature
M106 S255 ; Turn on extr fan
G28 ; home all axes
;G1 Z5 F5000 ; lift nozzle

; Filament gcode

M109 S250 ; set temperature and wait for it to be reached
G21 ; set units to millimeters
G90 ; use absolute coordinates
M82 ; use absolute distances for extrusion
G92 E0
M106 S255
;G28 X0  ; home X axis
;G28 Y0  ; home Y axis

G1 E-4.00000 F600.00000
G92 E0
G1 Z0.400 F3000.000
G1 X41.021 Y26.807 F3000.000
G1 Z0.300 F3000.000
G1 E4.00000 F600.00000
G1 F450
G1 X42.088 Y25.788 E4.07520
G1 X43.399 Y25.458 E4.14412
G1 X63.399 Y25.458 E5.16347
G1 X64.822 Y25.851 E5.23867
G1 X65.841 Y26.918 E5.31387
G1 X66.171 Y28.229 E5.38280
G1 X66.171 Y48.229 E6.40215
G1 X65.778 Y49.651 E6.47735
G1 X64.711 Y50.670 E6.55255
G1 X63.399 Y51.000 E6.62147
G1 X43.399 Y51.000 E7.64082
G1 X41.977 Y50.608 E7.71602
G1 X40.958 Y49.541 E7.79122
G1 X40.628 Y48.229 E7.86014
G1 X40.628 Y28.229 E8.87949
G1 X41.005 Y26.865 E8.95164
G1 X41.405 Y26.919 F3000.000
G1 F450
G1 X42.452 Y26.040 E9.02130
G1 X43.399 Y25.844 E9.07063
G1 X63.399 Y25.844 E10.08998
G1 X64.709 Y26.235 E10.15965
G1 X65.589 Y27.281 E10.22932
G1 X65.785 Y28.229 E10.27865
G1 X65.785 Y48.229 E11.29800
G1 X65.393 Y49.539 E11.36766
G1 X64.347 Y50.418 E11.43733
G1 X63.399 Y50.615 E11.48666
G1 X43.399 Y50.615 E12.50601
G1 X42.090 Y50.223 E12.57568
G1 X41.210 Y49.177 E12.64535
G1 X41.014 Y48.229 E12.69468
G1 X41.014 Y28.229 E13.71402
G1 X41.388 Y26.977 E13.78063
G1 E9.78063 F600.00000
G92 E0
G1 Z0.700 F3000.000
G1 X62.789 Y47.619 F3000.000
G1 Z0.300 F3000.000
G1 E4.00000 F600.00000
G1 F900
G1 X44.010 Y47.619 E4.95710
G1 X44.010 Y28.840 E5.91421
G1 X62.789 Y28.840 E6.87131
G1 X62.789 Y47.559 E7.82536
G1 X63.174 Y48.004 F3000.000
G1 F297
G1 X43.624 Y48.004 E8.82177
G1 X43.624 Y28.454 E9.81819
G1 X63.174 Y28.454 E10.81460
G1 X63.174 Y47.944 E11.80795
G1 X62.788 Y47.901 F3000.000
G1 X62.253 Y47.383 F3000.000
G1 F720
G1 X62.553 Y47.083 E11.82960
G1 X62.553 Y46.537 E11.85742
G1 X61.707 Y47.383 E11.91842
G1 X61.162 Y47.383 E11.94625
G1 X62.553 Y45.991 E12.04661
G1 X62.553 Y45.446 E12.07443
G1 X60.616 Y47.383 E12.21414
G1 X60.070 Y47.383 E12.24197
G1 X62.553 Y44.900 E12.42104
G1 X62.553 Y44.354 E12.44887
G1 X59.525 Y47.383 E12.66729
G1 X58.979 Y47.383 E12.69512
G1 X62.553 Y43.809 E12.95289
G1 X62.553 Y43.263 E12.98072
G1 X58.433 Y47.383 E13.27785
G1 X57.888 Y47.383 E13.30568
G1 X62.553 Y42.717 E13.64217
G1 X62.553 Y42.172 E13.67000
G1 X57.342 Y47.383 E14.04584
G1 X56.796 Y47.383 E14.07367
G1 X62.553 Y41.626 E14.48887
G1 X62.553 Y41.080 E14.51670
G1 X56.251 Y47.383 E14.97125
G1 X55.705 Y47.383 E14.99908
G1 X62.553 Y40.535 E15.49299
G1 X62.553 Y39.989 E15.52082
G1 X55.159 Y47.383 E16.05409
G1 X54.614 Y47.383 E16.08192
G1 X62.553 Y39.443 E16.65454
G1 X62.553 Y38.898 E16.68237
G1 X54.068 Y47.383 E17.29434
G1 X53.522 Y47.383 E17.32217
G1 X62.553 Y38.352 E17.97351
G1 X62.553 Y37.806 E18.00134
G1 X52.977 Y47.383 E18.69202
G1 X52.431 Y47.383 E18.71985
G1 X62.553 Y37.261 E19.44990
G1 X62.553 Y36.715 E19.47773
G1 X51.885 Y47.383 E20.24713
G1 X51.340 Y47.383 E20.27496
G1 X62.553 Y36.169 E21.08371
G1 X62.553 Y35.624 E21.11154
G1 X50.794 Y47.383 E21.95965
G1 X50.248 Y47.383 E21.98748
G1 X62.553 Y35.078 E22.87495
G1 X62.553 Y34.532 E22.90278
G1 X49.703 Y47.383 E23.82960
G1 X49.157 Y47.383 E23.85743
G1 X62.553 Y33.987 E24.82361
G1 X62.553 Y33.441 E24.85143
G1 X48.611 Y47.383 E25.85697
G1 X48.066 Y47.383 E25.88480
G1 X62.553 Y32.895 E26.92969
G1 X62.553 Y32.349 E26.95752
G1 X47.520 Y47.383 E28.04176
G1 X46.974 Y47.383 E28.06959
G1 X62.553 Y31.804 E29.19319
G1 X62.553 Y31.258 E29.22102
G1 X46.428 Y47.383 E30.38398
G1 X45.883 Y47.383 E30.41181
G1 X62.553 Y30.712 E31.61412
G1 X62.553 Y30.167 E31.64195
G1 X45.337 Y47.383 E32.88362
G1 X44.791 Y47.383 E32.91144
G1 X62.553 Y29.621 E34.19247
G1 X62.553 Y29.075 E34.22030
G1 X44.246 Y47.383 E35.54068
G1 X44.246 Y46.837 E35.56850
G1 X62.008 Y29.075 E36.84953
G1 X61.462 Y29.075 E36.87736
G1 X44.246 Y46.292 E38.11904
G1 X44.246 Y45.746 E38.14686
G1 X60.916 Y29.075 E39.34918
G1 X60.371 Y29.075 E39.37701
G1 X44.246 Y45.200 E40.53997
G1 X44.246 Y44.655 E40.56780
G1 X59.825 Y29.075 E41.69141
G1 X59.279 Y29.075 E41.71924
G1 X44.246 Y44.109 E42.80349
G1 X44.246 Y43.563 E42.83131
G1 X58.734 Y29.075 E43.87621
G1 X58.188 Y29.075 E43.90404
G1 X44.246 Y43.017 E44.90958
G1 X44.246 Y42.472 E44.93741
G1 X57.642 Y29.075 E45.90359
G1 X57.096 Y29.075 E45.93142
G1 X44.246 Y41.926 E46.85825
G1 X44.246 Y41.380 E46.88607
G1 X56.551 Y29.075 E47.77355
G1 X56.005 Y29.075 E47.80137
G1 X44.246 Y40.835 E48.64949
G1 X44.246 Y40.289 E48.67732
G1 X55.459 Y29.075 E49.48608
G1 X54.914 Y29.075 E49.51391
G1 X44.246 Y39.743 E50.28331
G1 X44.246 Y39.198 E50.31114
G1 X54.368 Y29.075 E51.04119
G1 X53.822 Y29.075 E51.06902
G1 X44.246 Y38.652 E51.75971
G1 X44.246 Y38.106 E51.78754
G1 X53.277 Y29.075 E52.43888
G1 X52.731 Y29.075 E52.46671
G1 X44.246 Y37.561 E53.07869
G1 X44.246 Y37.015 E53.10652
G1 X52.185 Y29.075 E53.67915
G1 X51.640 Y29.075 E53.70698
G1 X44.246 Y36.469 E54.24025
G1 X44.246 Y35.924 E54.26808
G1 X51.094 Y29.075 E54.76199
G1 X50.548 Y29.075 E54.78982
G1 X44.246 Y35.378 E55.24438
G1 X44.246 Y34.832 E55.27221
G1 X50.003 Y29.075 E55.68741
G1 X49.457 Y29.075 E55.71524
G1 X44.246 Y34.287 E56.09109
G1 X44.246 Y33.741 E56.11892
G1 X48.911 Y29.075 E56.45541
G1 X48.366 Y29.075 E56.48324
G1 X44.246 Y33.195 E56.78038
G1 X44.246 Y32.650 E56.80820
G1 X47.820 Y29.075 E57.06599
G1 X47.274 Y29.075 E57.09381
G1 X44.246 Y32.104 E57.31224
G1 X44.246 Y31.558 E57.34007
G1 X46.729 Y29.075 E57.51914
G1 X46.183 Y29.075 E57.54697
G1 X44.246 Y31.013 E57.68668
G1 X44.246 Y30.467 E57.71451
G1 X45.637 Y29.075 E57.81487
G1 X45.092 Y29.075 E57.84270
G1 X44.246 Y29.921 E57.90370
G1 X44.246 Y29.376 E57.93153
G1 X44.546 Y29.075 E57.95318
M104 S240 ; set temperature
M140 S70 ; set bed temperature
;G28 X0  ; home X axis
;G28 Y0  ; home Y axis

G1 E53.95318 F600.00000
G92 E0
G1 Z0.700 F3000.000
G1 X63.002 Y47.832 F3000.000
G1 Z0.500 F3000.000
G1 E4.00000 F600.00000
G1 F1800
G1 X43.797 Y47.832 E4.87505
G1 X43.797 Y28.626 E5.75010
G1 X63.002 Y28.626 E6.62515
G1 X63.002 Y47.772 E7.49747
G1 X63.319 Y48.149 F3000.000
G1 F594
G1 X43.479 Y48.149 E7.70214
G1 X43.479 Y28.309 E7.90682
G1 X63.319 Y28.309 E8.11149
G1 X63.319 Y48.089 E8.31555
G1 X62.933 Y48.046 F3000.000
G1 E4.31555 F600.00000
G92 E0
G1 Z0.900 F3000.000
G1 X62.686 Y29.345 F3000.000
G1 Z0.500 F3000.000
G1 E4.00000 F600.00000
G1 F1440
G1 X62.284 Y28.942 E4.02629
G1 X61.542 Y28.942 E4.06057
G1 X62.686 Y30.086 E4.13534
G1 X62.686 Y30.828 E4.16961
G1 X60.801 Y28.942 E4.29285
G1 X60.059 Y28.942 E4.32712
G1 X62.686 Y31.570 E4.49884
G1 X62.686 Y32.311 E4.53311
G1 X59.317 Y28.942 E4.75330
G1 X58.576 Y28.942 E4.78757
G1 X62.686 Y33.053 E5.05623
G1 X62.686 Y33.795 E5.09050
G1 X57.834 Y28.942 E5.40763
G1 X57.092 Y28.942 E5.44191
G1 X62.686 Y34.536 E5.80751
G1 X62.686 Y35.278 E5.84178
G1 X56.351 Y28.942 E6.25586
G1 X55.609 Y28.942 E6.29013
G1 X62.686 Y36.020 E6.75268
G1 X62.686 Y36.761 E6.78695
G1 X54.867 Y28.942 E7.29797
G1 X54.125 Y28.942 E7.33225
G1 X62.686 Y37.503 E7.89174
G1 X62.686 Y38.245 E7.92601
G1 X53.384 Y28.942 E8.53398
G1 X52.642 Y28.942 E8.56825
G1 X62.686 Y38.987 E9.22469
G1 X62.686 Y39.728 E9.25897
G1 X51.900 Y28.942 E9.96387
G1 X51.159 Y28.942 E9.99815
G1 X62.686 Y40.470 E10.75153
G1 X62.686 Y41.212 E10.78581
G1 X50.417 Y28.942 E11.58766
G1 X49.675 Y28.942 E11.62194
G1 X62.686 Y41.953 E12.47226
G1 X62.686 Y42.695 E12.50654
G1 X48.934 Y28.942 E13.40534
G1 X48.192 Y28.942 E13.43961
G1 X62.686 Y43.437 E14.38688
G1 X62.686 Y44.178 E14.42116
G1 X47.450 Y28.942 E15.41690
G1 X46.708 Y28.942 E15.45118
G1 X62.686 Y44.920 E16.49539
G1 X62.686 Y45.662 E16.52967
G1 X45.967 Y28.942 E17.62236
G1 X45.225 Y28.942 E17.65663
G1 X62.686 Y46.404 E18.79779
G1 X62.686 Y47.145 E18.83207
G1 X44.483 Y28.942 E20.02170
G1 X44.113 Y28.942 E20.03884
G1 X44.113 Y29.313 E20.05598
G1 X62.316 Y47.516 E21.24561
G1 X61.574 Y47.516 E21.27989
G1 X44.113 Y30.055 E22.42105
G1 X44.113 Y30.796 E22.45533
G1 X60.832 Y47.516 E23.54802
G1 X60.091 Y47.516 E23.58229
G1 X44.113 Y31.538 E24.62651
G1 X44.113 Y32.280 E24.66078
G1 X59.349 Y47.516 E25.65653
G1 X58.607 Y47.516 E25.69080
G1 X44.113 Y33.021 E26.63808
G1 X44.113 Y33.763 E26.67235
G1 X57.865 Y47.516 E27.57115
G1 X57.124 Y47.516 E27.60543
G1 X44.113 Y34.505 E28.45576
G1 X44.113 Y35.247 E28.49003
G1 X56.382 Y47.516 E29.29189
G1 X55.640 Y47.516 E29.32616
G1 X44.113 Y35.988 E30.07954
G1 X44.113 Y36.730 E30.11382
G1 X54.899 Y47.516 E30.81873
G1 X54.157 Y47.516 E30.85300
G1 X44.113 Y37.472 E31.50944
G1 X44.113 Y38.213 E31.54372
G1 X53.415 Y47.516 E32.15168
G1 X52.674 Y47.516 E32.18596
G1 X44.113 Y38.955 E32.74545
G1 X44.113 Y39.697 E32.77973
G1 X51.932 Y47.516 E33.29075
G1 X51.190 Y47.516 E33.32502
G1 X44.113 Y40.438 E33.78757
G1 X44.113 Y41.180 E33.82184
G1 X50.448 Y47.516 E34.23592
G1 X49.707 Y47.516 E34.27019
G1 X44.113 Y41.922 E34.63580
G1 X44.113 Y42.664 E34.67007
G1 X48.965 Y47.516 E34.98720
G1 X48.223 Y47.516 E35.02148
G1 X44.113 Y43.405 E35.29013
G1 X44.113 Y44.147 E35.32441
G1 X47.482 Y47.516 E35.54459
G1 X46.740 Y47.516 E35.57887
G1 X44.113 Y44.889 E35.75058
G1 X44.113 Y45.630 E35.78486
G1 X45.998 Y47.516 E35.90810
G1 X45.257 Y47.516 E35.94237
G1 X44.113 Y46.372 E36.01714
G1 X44.113 Y47.114 E36.05142
G1 X44.515 Y47.516 E36.07770
;G28 X0  ; home X axis
;G28 Y0  ; home Y axis

G1 E32.07770 F600.00000
G92 E0
G1 Z0.900 F3000.000
G1 X63.002 Y47.832 F3000.000
G1 Z0.700 F3000.000
G1 E4.00000 F600.00000
G1 F1800
G1 X43.797 Y47.832 E4.87505
G1 X43.797 Y28.626 E5.75010
G1 X63.002 Y28.626 E6.62515
G1 X63.002 Y47.772 E7.49747
G1 X63.319 Y48.149 F3000.000
G1 F594
G1 X43.479 Y48.149 E7.70214
G1 X43.479 Y28.309 E7.90682
G1 X63.319 Y28.309 E8.11149
G1 X63.319 Y48.089 E8.31555
G1 X62.933 Y48.046 F3000.000
G1 E4.31555 F600.00000
G92 E0
G1 Z1.100 F3000.000
G1 X61.606 Y29.113 F3000.000
G1 Z0.700 F3000.000
G1 E4.00000 F600.00000
G1 F1800
G1 X61.606 Y30.438 E4.07335
G1 X61.759 Y30.591 E4.08531
G1 X61.759 Y32.724 E4.20338
G1 X61.606 Y32.876 E4.21534
G1 X61.606 Y35.009 E4.33341
G1 X61.759 Y35.162 E4.34537
G1 X61.759 Y37.294 E4.46344
G1 X61.606 Y37.447 E4.47540
G1 X61.606 Y39.580 E4.59347
G1 X61.759 Y39.732 E4.60543
G1 X61.759 Y41.865 E4.72350
G1 X61.606 Y42.018 E4.73546
G1 X61.606 Y44.151 E4.85353
G1 X61.759 Y44.303 E4.86549
G1 X61.759 Y46.436 E4.98356
G1 X61.606 Y46.589 E4.99552
G1 X61.606 Y47.345 E5.03739
G1 X59.474 Y47.345 E5.15546
G1 X59.474 Y46.589 E5.19733
G1 X59.321 Y46.436 E5.20929
G1 X59.321 Y44.303 E5.32736
G1 X59.474 Y44.151 E5.33932
G1 X59.474 Y42.018 E5.45739
G1 X59.321 Y41.865 E5.46935
G1 X59.321 Y39.732 E5.58742
G1 X59.474 Y39.580 E5.59938
G1 X59.474 Y37.447 E5.71745
G1 X59.321 Y37.294 E5.72941
G1 X59.321 Y35.162 E5.84748
G1 X59.474 Y35.009 E5.85944
G1 X59.474 Y32.876 E5.97751
G1 X59.321 Y32.724 E5.98947
G1 X59.321 Y30.591 E6.10754
G1 X59.474 Y30.438 E6.11950
G1 X59.474 Y29.113 E6.19285
G1 X57.035 Y29.113 E6.32784
G1 X57.035 Y30.438 E6.40119
G1 X57.188 Y30.591 E6.41315
G1 X57.188 Y32.724 E6.53122
G1 X57.035 Y32.876 E6.54318
G1 X57.035 Y35.009 E6.66125
G1 X57.188 Y35.162 E6.67321
G1 X57.188 Y37.294 E6.79128
G1 X57.035 Y37.447 E6.80323
G1 X57.035 Y39.580 E6.92131
G1 X57.188 Y39.732 E6.93326
G1 X57.188 Y41.865 E7.05134
G1 X57.035 Y42.018 E7.06329
G1 X57.035 Y44.151 E7.18137
G1 X57.188 Y44.303 E7.19332
G1 X57.188 Y46.436 E7.31140
G1 X57.035 Y46.589 E7.32335
G1 X57.035 Y47.345 E7.36523
G1 X54.903 Y47.345 E7.48330
G1 X54.903 Y46.589 E7.52517
G1 X54.750 Y46.436 E7.53713
G1 X54.750 Y44.303 E7.65520
G1 X54.903 Y44.151 E7.66716
G1 X54.903 Y42.018 E7.78523
G1 X54.750 Y41.865 E7.79719
G1 X54.750 Y39.732 E7.91526
G1 X54.903 Y39.580 E7.92722
G1 X54.903 Y37.447 E8.04529
G1 X54.750 Y37.294 E8.05725
G1 X54.750 Y35.162 E8.17532
G1 X54.903 Y35.009 E8.18728
G1 X54.903 Y32.876 E8.30535
G1 X54.750 Y32.724 E8.31731
G1 X54.750 Y30.591 E8.43538
G1 X54.903 Y30.438 E8.44734
G1 X54.903 Y29.113 E8.52069
G1 X52.465 Y29.113 E8.65567
G1 X52.465 Y30.438 E8.72902
G1 X52.617 Y30.591 E8.74098
G1 X52.617 Y32.724 E8.85905
G1 X52.465 Y32.876 E8.87101
G1 X52.465 Y35.009 E8.98908
G1 X52.617 Y35.162 E9.00104
G1 X52.617 Y37.294 E9.11911
G1 X52.465 Y37.447 E9.13107
G1 X52.465 Y39.580 E9.24914
G1 X52.617 Y39.732 E9.26110
G1 X52.617 Y41.865 E9.37917
G1 X52.465 Y42.018 E9.39113
G1 X52.465 Y44.151 E9.50920
G1 X52.617 Y44.303 E9.52116
G1 X52.617 Y46.436 E9.63923
G1 X52.465 Y46.589 E9.65119
G1 X52.465 Y47.345 E9.69306
G1 X50.332 Y47.345 E9.81113
G1 X50.332 Y46.589 E9.85301
G1 X50.179 Y46.436 E9.86497
G1 X50.179 Y44.303 E9.98304
G1 X50.332 Y44.151 E9.99500
G1 X50.332 Y42.018 E10.11307
G1 X50.179 Y41.865 E10.12503
G1 X50.179 Y39.732 E10.24310
G1 X50.332 Y39.580 E10.25506
G1 X50.332 Y37.447 E10.37313
G1 X50.179 Y37.294 E10.38509
G1 X50.179 Y35.162 E10.50316
G1 X50.332 Y35.009 E10.51512
G1 X50.332 Y32.876 E10.63319
G1 X50.179 Y32.724 E10.64515
G1 X50.179 Y30.591 E10.76322
G1 X50.332 Y30.438 E10.77518
G1 X50.332 Y29.113 E10.84852
G1 X47.894 Y29.113 E10.98351
G1 X47.894 Y30.438 E11.05686
G1 X48.047 Y30.591 E11.06882
G1 X48.047 Y32.724 E11.18689
G1 X47.894 Y32.876 E11.19885
G1 X47.894 Y35.009 E11.31692
G1 X48.047 Y35.162 E11.32888
G1 X48.047 Y37.294 E11.44695
G1 X47.894 Y37.447 E11.45891
G1 X47.894 Y39.580 E11.57698
G1 X48.047 Y39.732 E11.58894
G1 X48.047 Y41.865 E11.70701
G1 X47.894 Y42.018 E11.71897
G1 X47.894 Y44.151 E11.83704
G1 X48.047 Y44.303 E11.84900
G1 X48.047 Y46.436 E11.96707
G1 X47.894 Y46.589 E11.97903
G1 X47.894 Y47.345 E12.02090
G1 X45.761 Y47.345 E12.13897
G1 X45.761 Y46.589 E12.18084
G1 X45.608 Y46.436 E12.19280
G1 X45.608 Y44.303 E12.31087
G1 X45.761 Y44.151 E12.32283
G1 X45.761 Y42.018 E12.44090
G1 X45.608 Y41.865 E12.45286
G1 X45.608 Y39.732 E12.57093
G1 X45.761 Y39.580 E12.58289
G1 X45.761 Y37.447 E12.70096
G1 X45.608 Y37.294 E12.71292
G1 X45.608 Y35.162 E12.83099
G1 X45.761 Y35.009 E12.84295
G1 X45.761 Y32.876 E12.96102
G1 X45.608 Y32.724 E12.97298
G1 X45.608 Y30.591 E13.09105
G1 X45.761 Y30.438 E13.10301
G1 X45.761 Y29.113 E13.17636
;G28 X0  ; home X axis
;G28 Y0  ; home Y axis

G1 E9.17636 F600.00000
G92 E0
G1 Z1.100 F3000.000
G1 X63.002 Y47.832 F3000.000
G1 Z0.900 F3000.000
G1 E4.00000 F600.00000
G1 F1800
G1 X43.797 Y47.832 E4.87505
G1 X43.797 Y28.626 E5.75010
G1 X63.002 Y28.626 E6.62515
G1 X63.002 Y47.772 E7.49747
G1 X63.319 Y48.149 F3000.000
G1 F594
G1 X43.479 Y48.149 E7.70214
G1 X43.479 Y28.309 E7.90682
G1 X63.319 Y28.309 E8.11149
G1 X63.319 Y48.089 E8.31555
G1 X62.933 Y48.046 F3000.000
G1 X61.748 Y47.345 F3000.000
G1 F1800
G1 X61.748 Y46.577 E8.35805
G1 X61.618 Y46.447 E8.36824
G1 X61.618 Y44.292 E8.48756
G1 X61.748 Y44.162 E8.49775
G1 X61.748 Y42.007 E8.61707
G1 X61.618 Y41.876 E8.62726
G1 X61.618 Y39.721 E8.74658
G1 X61.748 Y39.591 E8.75677
G1 X61.748 Y37.436 E8.87609
G1 X61.618 Y37.306 E8.88628
G1 X61.618 Y35.150 E9.00560
G1 X61.748 Y35.020 E9.01579
G1 X61.748 Y32.865 E9.13511
G1 X61.618 Y32.735 E9.14530
G1 X61.618 Y30.580 E9.26462
G1 X61.748 Y30.449 E9.27481
G1 X61.748 Y29.113 E9.34879
G1 X59.332 Y29.113 E9.48251
G1 X59.332 Y30.449 E9.55649
G1 X59.462 Y30.580 E9.56668
G1 X59.462 Y32.735 E9.68600
G1 X59.332 Y32.865 E9.69619
G1 X59.332 Y35.020 E9.81551
G1 X59.462 Y35.150 E9.82570
G1 X59.462 Y37.306 E9.94502
G1 X59.332 Y37.436 E9.95521
G1 X59.332 Y39.591 E10.07453
G1 X59.462 Y39.721 E10.08472
G1 X59.462 Y41.876 E10.20404
G1 X59.332 Y42.007 E10.21423
G1 X59.332 Y44.162 E10.33355
G1 X59.462 Y44.292 E10.34374
G1 X59.462 Y46.447 E10.46306
G1 X59.332 Y46.577 E10.47325
G1 X59.332 Y47.345 E10.51575
G1 X57.177 Y47.345 E10.63507
G1 X57.177 Y46.577 E10.67757
G1 X57.047 Y46.447 E10.68776
G1 X57.047 Y44.292 E10.80708
G1 X57.177 Y44.162 E10.81727
G1 X57.177 Y42.007 E10.93659
