; generated by Slic3r 1.3.0 on 2020-03-25 at 12:45:02

; external perimeters extrusion width = 0.44mm (0.79mm^3/s)
; perimeters extrusion width = 0.56mm (3.10mm^3/s)
; infill extrusion width = 0.50mm (2.74mm^3/s)
; solid infill extrusion width = 0.56mm (2.48mm^3/s)
; top infill extrusion width = 0.56mm (1.24mm^3/s)

M190 S80 ; set bed temperature and wait for it to be reached
M104 S250 ; set temperature
M106 S255 ; Turn on extr fan
G28 ; home all axes
;G1 Z5 F5000 ; lift nozzle

; Filament gcode

M109 S250 ; set temperature and wait for it to be reached
G21 ; set units to millimeters
G90 ; use absolute coordinates
M82 ; use absolute distances for extrusion
G92 E0
M106 S255
;G28 X0  ; home X axis
;G28 Y0  ; home Y axis

G1 E-4.00000 F600.00000
G92 E0
G1 Z0.400 F3000.000
G1 X45.231 Y22.663 F3000.000
G1 Z0.300 F3000.000
G1 E4.00000 F600.00000
G1 F450
G1 X50.231 Y17.663 E4.36039
G1 X51.052 Y17.127 E4.41036
G1 X81.852 Y5.127 E6.09509
G1 X82.718 Y4.964 E6.14000
G1 X84.797 Y4.964 E6.24596
G1 X86.107 Y5.355 E6.31563
G1 X86.986 Y6.402 E6.38530
G1 X87.183 Y7.349 E6.43463
G1 X87.183 Y99.349 E11.12363
G1 X86.791 Y100.659 E11.19330
G1 X85.745 Y101.539 E11.26297
G1 X84.797 Y101.735 E11.31230
G1 X82.718 Y101.735 E11.41825
G1 X81.852 Y101.572 E11.46317
G1 X51.052 Y89.572 E13.14790
G1 X50.231 Y89.036 E13.19786
G1 X45.231 Y84.036 E13.55826
G1 X44.533 Y82.349 E13.65132
G1 X44.533 Y24.349 E16.60743
G1 X45.208 Y22.718 E16.69743
G1 E12.69743 F600.00000
G92 E0
G1 Z0.700 F3000.000
G1 X73.271 Y61.811 F3000.000
G1 Z0.300 F3000.000
G1 E4.00000 F600.00000
G1 F900
G1 X77.623 Y69.349 E4.44368
G1 X73.271 Y76.888 E4.88735
G1 X64.566 Y76.888 E5.33103
G1 X60.213 Y69.349 E5.77470
G1 X64.566 Y61.811 E6.21838
G1 X73.211 Y61.811 E6.65899
G1 X73.048 Y62.196 F3000.000
G1 F297
G1 X77.178 Y69.349 E7.07997
G1 X73.048 Y76.503 E7.50096
G1 X64.788 Y76.503 E7.92194
G1 X60.658 Y69.349 E8.34292
G1 X64.788 Y62.196 E8.76390
G1 X72.988 Y62.196 E9.18182
G1 X73.395 Y61.996 F3000.000
G1 E5.18182 F600.00000
G92 E0
G1 Z0.700 F3000.000
G1 X73.271 Y79.811 F3000.000
G1 Z0.300 F3000.000
G1 E4.00000 F600.00000
G1 F900
G1 X64.566 Y79.811 E4.44368
G1 X60.566 Y86.739 E4.85141
G1 X52.171 Y86.739 E5.27926
G1 X47.529 Y82.097 E5.61387
G1 X47.529 Y59.602 E6.76034
G1 X50.800 Y56.331 E6.99613
G1 X78.607 Y56.331 E8.41336
G1 X84.187 Y64.222 E8.90594
G1 X84.187 Y98.739 E10.66516
G1 X82.971 Y98.739 E10.72710
G1 X77.529 Y93.297 E11.11938
G1 X77.529 Y87.186 E11.43082
G1 X73.301 Y79.863 E11.86181
G1 X73.048 Y80.196 F3000.000
G1 F297
G1 X64.788 Y80.196 E12.28279
G1 X60.788 Y87.124 E12.69053
G1 X52.011 Y87.124 E13.13787
G1 X47.143 Y82.256 E13.48876
G1 X47.143 Y59.443 E14.65151
G1 X50.640 Y55.946 E14.90358
G1 X78.806 Y55.946 E16.33912
G1 X84.572 Y64.100 E16.84813
G1 X84.572 Y99.124 E18.63324
G1 X82.811 Y99.124 E18.72298
G1 X77.143 Y93.456 E19.13154
G1 X77.143 Y87.289 E19.44586
G1 X73.078 Y80.248 E19.86024
G1 X73.008 Y79.798 F3000.000
G1 E15.86024 F600.00000
G92 E0
G1 Z0.700 F3000.000
G1 X73.857 Y76.535 F3000.000
G1 Z0.300 F3000.000
G1 E4.00000 F600.00000
G1 F720
G1 X83.951 Y66.441 E4.73063
G1 X83.951 Y65.893 E4.75866
G1 X74.605 Y75.239 E5.43515
G1 X75.353 Y73.944 E5.51172
G1 X83.951 Y65.345 E6.13406
G1 X83.951 Y64.798 E6.16209
G1 X76.101 Y72.648 E6.73029
G1 X76.849 Y71.352 E6.80686
G1 X83.951 Y64.250 E7.32091
G1 X83.951 Y64.195 E7.32374
G1 X83.747 Y63.907 E7.34182
G1 X77.597 Y70.057 E7.78697
G1 X77.919 Y69.499 E7.81990
G1 X77.804 Y69.302 E7.83159
G1 X83.520 Y63.586 E8.24530
G1 X83.293 Y63.265 E8.26541
G1 X77.604 Y68.954 E8.67721
G1 X77.403 Y68.607 E8.69773
G1 X83.067 Y62.944 E9.10762
G1 X82.840 Y62.623 E9.12773
G1 X77.203 Y68.260 E9.53571
G1 X77.003 Y67.913 E9.55623
G1 X82.613 Y62.303 E9.96230
G1 X82.386 Y61.982 E9.98241
G1 X76.802 Y67.566 E10.38657
G1 X76.602 Y67.218 E10.40708
G1 X82.159 Y61.661 E10.80933
G1 X81.932 Y61.340 E10.82944
G1 X76.401 Y66.871 E11.22978
G1 X76.201 Y66.524 E11.25030
G1 X81.706 Y61.019 E11.64873
G1 X81.479 Y60.699 E11.66884
G1 X76.000 Y66.177 E12.06536
G1 X75.800 Y65.830 E12.08588
G1 X81.252 Y60.378 E12.48049
G1 X81.025 Y60.057 E12.50060
G1 X75.599 Y65.483 E12.89330
G1 X75.399 Y65.135 E12.91382
G1 X80.798 Y59.736 E13.30461
G1 X80.571 Y59.415 E13.32471
G1 X75.199 Y64.788 E13.71360
G1 X74.998 Y64.441 E13.73411
G1 X80.344 Y59.095 E14.12108
G1 X80.118 Y58.774 E14.14119
G1 X74.798 Y64.094 E14.52625
G1 X74.597 Y63.747 E14.54677
G1 X79.891 Y58.453 E14.92992
G1 X79.664 Y58.132 E14.95003
G1 X74.397 Y63.399 E15.33127
G1 X74.196 Y63.052 E15.35179
G1 X79.437 Y57.811 E15.73112
G1 X79.210 Y57.491 E15.75122
G1 X73.996 Y62.705 E16.12865
G1 X73.795 Y62.358 E16.14916
G1 X78.983 Y57.170 E16.52467
G1 X78.757 Y56.849 E16.54478
G1 X73.595 Y62.011 E16.91838
G1 X73.395 Y61.664 E16.93890
G1 X78.491 Y56.567 E17.30780
G1 X77.944 Y56.567 E17.33583
G1 X72.935 Y61.575 E17.69833
G1 X72.388 Y61.575 E17.72636
G1 X77.396 Y56.567 E18.08885
G1 X76.848 Y56.567 E18.11688
G1 X71.840 Y61.575 E18.47938
G1 X71.293 Y61.575 E18.50740
G1 X76.301 Y56.567 E18.86990
G1 X75.753 Y56.567 E18.89793
G1 X70.745 Y61.575 E19.26043
G1 X70.197 Y61.575 E19.28845
G1 X75.206 Y56.567 E19.65095
G1 X74.658 Y56.567 E19.67898
G1 X69.650 Y61.575 E20.04147
G1 X69.102 Y61.575 E20.06950
G1 X74.110 Y56.567 E20.43200
G1 X73.563 Y56.567 E20.46003
G1 X68.554 Y61.575 E20.82252
G1 X68.007 Y61.575 E20.85055
G1 X73.015 Y56.567 E21.21305
G1 X72.467 Y56.567 E21.24107
G1 X67.459 Y61.575 E21.60357
G1 X66.912 Y61.575 E21.63160
G1 X71.920 Y56.567 E21.99409
G1 X71.372 Y56.567 E22.02212
G1 X66.364 Y61.575 E22.38462
G1 X65.816 Y61.575 E22.41265
G1 X70.825 Y56.567 E22.77514
G1 X70.277 Y56.567 E22.80317
G1 X65.269 Y61.575 E23.16567
G1 X64.721 Y61.575 E23.19369
G1 X69.729 Y56.567 E23.55619
G1 X69.182 Y56.567 E23.58422
G1 X47.764 Y77.984 E25.13439
G1 X47.764 Y77.436 E25.16242
G1 X68.634 Y56.567 E26.67296
G1 X68.086 Y56.567 E26.70099
G1 X47.764 Y76.889 E28.17189
G1 X47.764 Y76.341 E28.19992
G1 X67.539 Y56.567 E29.63118
G1 X66.991 Y56.567 E29.65921
G1 X47.764 Y75.793 E31.05084
G1 X47.764 Y75.246 E31.07886
G1 X66.444 Y56.567 E32.43085
G1 X65.896 Y56.567 E32.45888
G1 X47.764 Y74.698 E33.77123
G1 X47.764 Y74.151 E33.79926
G1 X65.348 Y56.567 E35.07198
G1 X64.801 Y56.567 E35.10000
G1 X47.764 Y73.603 E36.33308
G1 X47.764 Y73.055 E36.36111
G1 X64.253 Y56.567 E37.55455
G1 X63.705 Y56.567 E37.58258
G1 X47.764 Y72.508 E38.73638
G1 X47.764 Y71.960 E38.76441
G1 X63.158 Y56.567 E39.87858
G1 X62.610 Y56.567 E39.90660
G1 X47.764 Y71.412 E40.98113
G1 X47.764 Y70.865 E41.00916
G1 X62.063 Y56.567 E42.04405
G1 X61.515 Y56.567 E42.07208
G1 X47.764 Y70.317 E43.06733
G1 X47.764 Y69.770 E43.09536
G1 X60.967 Y56.567 E44.05098
G1 X60.420 Y56.567 E44.07900
G1 X47.764 Y69.222 E44.99498
G1 X47.764 Y68.674 E45.02301
G1 X59.872 Y56.567 E45.89935
G1 X59.324 Y56.567 E45.92738
G1 X47.764 Y68.127 E46.76409
G1 X47.764 Y67.579 E46.79212
G1 X58.777 Y56.567 E47.58918
G1 X58.229 Y56.567 E47.61721
G1 X47.764 Y67.031 E48.37464
G1 X47.764 Y66.484 E48.40267
G1 X57.682 Y56.567 E49.12046
G1 X57.134 Y56.567 E49.14849
G1 X47.764 Y65.936 E49.82665
G1 X47.764 Y65.389 E49.85467
G1 X56.586 Y56.567 E50.49319
G1 X56.039 Y56.567 E50.52122
G1 X47.764 Y64.841 E51.12010
G1 X47.764 Y64.293 E51.14813
G1 X55.491 Y56.567 E51.70737
G1 X54.943 Y56.567 E51.73540
G1 X47.764 Y63.746 E52.25501
G1 X47.764 Y63.198 E52.28304
G1 X54.396 Y56.567 E52.76301
G1 X53.848 Y56.567 E52.79103
G1 X47.764 Y62.650 E53.23137
G1 X47.764 Y62.103 E53.25939
G1 X53.300 Y56.567 E53.66009
G1 X52.753 Y56.567 E53.68812
G1 X47.764 Y61.555 E54.04917
G1 X47.764 Y61.008 E54.07720
G1 X52.205 Y56.567 E54.39862
G1 X51.658 Y56.567 E54.42665
G1 X47.764 Y60.460 E54.70843
G1 X47.764 Y59.912 E54.73646
G1 X51.110 Y56.567 E54.97861
G1 E50.97861 F600.00000
G92 E0
G1 Z0.700 F3000.000
G1 X63.772 Y62.524 F3000.000
G1 Z0.300 F3000.000
G1 E4.00000 F600.00000
G1 F720
G1 X47.764 Y78.532 E5.15861
G1 X47.764 Y79.079 E5.18664
G1 X63.024 Y63.820 E6.29111
G1 X62.276 Y65.116 E6.36768
G1 X47.764 Y79.627 E7.41800
G1 X47.764 Y80.174 E7.44603
G1 X61.528 Y66.411 E8.44220
G1 X60.780 Y67.707 E8.51878
G1 X47.764 Y80.722 E9.46081
G1 X47.764 Y81.270 E9.48883
G1 X60.031 Y69.003 E10.37672
G1 X59.918 Y69.199 E10.38834
G1 X60.088 Y69.494 E10.40575
G1 X47.764 Y81.817 E11.29772
G1 X47.764 Y82.087 E11.31151
G1 X47.904 Y82.226 E11.32157
G1 X60.288 Y69.841 E12.21798
G1 X60.489 Y70.188 E12.23850
G1 X48.177 Y82.500 E13.12960
G1 X48.451 Y82.774 E13.14942
G1 X60.689 Y70.535 E14.03520
G1 X60.890 Y70.883 E14.05572
G1 X48.725 Y83.047 E14.93620
G1 X48.999 Y83.321 E14.95602
G1 X61.090 Y71.230 E15.83118
G1 X61.291 Y71.577 E15.85170
G1 X49.273 Y83.595 E16.72156
G1 X49.546 Y83.869 E16.74138
G1 X61.491 Y71.924 E17.60592
G1 X61.691 Y72.271 E17.62644
G1 X49.820 Y84.143 E18.48568
G1 X50.094 Y84.416 E18.50549
G1 X61.892 Y72.619 E19.35942
G1 X62.092 Y72.966 E19.37994
G1 X50.368 Y84.690 E20.22855
G1 X50.642 Y84.964 E20.24837
G1 X62.293 Y73.313 E21.09168
G1 X62.493 Y73.660 E21.11219
G1 X50.916 Y85.238 E21.95019
G1 X51.189 Y85.512 E21.97001
G1 X62.694 Y74.007 E22.80269
G1 X62.894 Y74.354 E22.82321
G1 X51.463 Y85.785 E23.65058
G1 X51.737 Y86.059 E23.67040
G1 X63.095 Y74.702 E24.49246
G1 X63.295 Y75.049 E24.51298
G1 X52.011 Y86.333 E25.32973
G1 X52.181 Y86.503 E25.34205
G1 X52.388 Y86.503 E25.35266
G1 X63.495 Y75.396 E26.15660
G1 X63.696 Y75.743 E26.17712
G1 X52.936 Y86.503 E26.95592
G1 X53.484 Y86.503 E26.98395
G1 X63.896 Y76.090 E27.73763
G1 X64.097 Y76.438 E27.75815
G1 X54.031 Y86.503 E28.48670
G1 X54.579 Y86.503 E28.51473
G1 X64.297 Y76.785 E29.21815
G1 X64.506 Y77.124 E29.23852
G1 X55.126 Y86.503 E29.91740
G1 X55.674 Y86.503 E29.94543
G1 X65.053 Y77.124 E30.62430
G1 X65.601 Y77.124 E30.65233
G1 X56.222 Y86.503 E31.33120
G1 X56.769 Y86.503 E31.35923
G1 X66.149 Y77.124 E32.03811
G1 X66.696 Y77.124 E32.06613
G1 X64.245 Y79.575 E32.24355
G1 X64.793 Y79.575 E32.27157
G1 X67.244 Y77.124 E32.44898
G1 X67.792 Y77.124 E32.47701
G1 X65.340 Y79.575 E32.65442
G1 X65.888 Y79.575 E32.68245
G1 X68.339 Y77.124 E32.85986
G1 X68.887 Y77.124 E32.88789
G1 X66.436 Y79.575 E33.06530
G1 X66.983 Y79.575 E33.09333
G1 X69.434 Y77.124 E33.27074
G1 X69.982 Y77.124 E33.29877
G1 X67.531 Y79.575 E33.47618
G1 X68.079 Y79.575 E33.50421
G1 X70.530 Y77.124 E33.68162
G1 X71.077 Y77.124 E33.70965
G1 X68.626 Y79.575 E33.88706
G1 X69.174 Y79.575 E33.91509
G1 X71.625 Y77.124 E34.09250
G1 X72.173 Y77.124 E34.12053
G1 X69.721 Y79.575 E34.29794
G1 X70.269 Y79.575 E34.32596
G1 X72.720 Y77.124 E34.50338
G1 X73.268 Y77.124 E34.53140
G1 X70.817 Y79.575 E34.70881
G1 X71.364 Y79.575 E34.73684
G1 X83.951 Y66.988 E35.64786
G1 X83.951 Y67.536 E35.67589
G1 X71.912 Y79.575 E36.54728
G1 X72.460 Y79.575 E36.57530
G1 X83.951 Y68.084 E37.40705
G1 X83.951 Y68.631 E37.43508
G1 X73.007 Y79.575 E38.22719
G1 X73.343 Y79.575 E38.24440
G1 X73.421 Y79.709 E38.25232
G1 X83.951 Y69.179 E39.01449
G1 X83.951 Y69.727 E39.04251
G1 X73.621 Y80.056 E39.79018
G1 X73.822 Y80.403 E39.81069
G1 X83.951 Y70.274 E40.54385
G1 X83.951 Y70.822 E40.57188
G1 X74.022 Y80.751 E41.29052
G1 X74.223 Y81.098 E41.31104
G1 X83.951 Y71.369 E42.01518
G1 X83.951 Y71.917 E42.04321
G1 X74.423 Y81.445 E42.73283
G1 X74.623 Y81.792 E42.75335
G1 X83.951 Y72.465 E43.42847
G1 X83.951 Y73.012 E43.45650
G1 X74.824 Y82.139 E44.11711
G1 X75.024 Y82.486 E44.13763
G1 X83.951 Y73.560 E44.78374
G1 X83.951 Y74.108 E44.81176
G1 X75.225 Y82.834 E45.44336
G1 X75.425 Y83.181 E45.46388
G1 X83.951 Y74.655 E46.08097
G1 X83.951 Y75.203 E46.10899
G1 X75.626 Y83.528 E46.71157
G1 X75.826 Y83.875 E46.73209
G1 X83.951 Y75.750 E47.32016
G1 X83.951 Y76.298 E47.34819
G1 X76.027 Y84.222 E47.92176
G1 X76.227 Y84.570 E47.94227
G1 X83.951 Y76.846 E48.50133
G1 X83.951 Y77.393 E48.52936
G1 X76.427 Y84.917 E49.07390
G1 X76.628 Y85.264 E49.09442
G1 X83.951 Y77.941 E49.62446
G1 X83.951 Y78.489 E49.65249
G1 X76.828 Y85.611 E50.16802
G1 X77.029 Y85.958 E50.18853
G1 X83.951 Y79.036 E50.68956
G1 X83.951 Y79.584 E50.71758
G1 X77.229 Y86.305 E51.20410
G1 X77.430 Y86.653 E51.22462
G1 X83.951 Y80.131 E51.69662
G1 X83.951 Y80.679 E51.72465
G1 X77.630 Y87.000 E52.18215
G1 X77.764 Y87.232 E52.19590
G1 X77.764 Y87.413 E52.20514
G1 X83.951 Y81.227 E52.65292
G1 X83.951 Y81.774 E52.68094
G1 X77.764 Y87.961 E53.12872
G1 X77.764 Y88.508 E53.15675
G1 X83.951 Y82.322 E53.60452
G1 X83.951 Y82.870 E53.63255
G1 X77.764 Y89.056 E54.08032
G1 X77.764 Y89.604 E54.10835
G1 X83.951 Y83.417 E54.55613
G1 X83.951 Y83.965 E54.58415
G1 X77.764 Y90.151 E55.03193
G1 X77.764 Y90.699 E55.05996
G1 X83.951 Y84.512 E55.50773
G1 X83.951 Y85.060 E55.53576
G1 X77.764 Y91.247 E55.98353
G1 X77.764 Y91.794 E56.01156
G1 X83.951 Y85.608 E56.45934
G1 X83.951 Y86.155 E56.48736
G1 X77.764 Y92.342 E56.93514
G1 X77.764 Y92.889 E56.96317
G1 X83.951 Y86.703 E57.41094
G1 X83.951 Y87.251 E57.43897
G1 X77.840 Y93.362 E57.88131
G1 X78.113 Y93.636 E57.90112
G1 X83.951 Y87.798 E58.32364
G1 X83.951 Y88.346 E58.35167
G1 X78.387 Y93.910 E58.75437
G1 X78.661 Y94.183 E58.77419
G1 X83.951 Y88.893 E59.15707
G1 X83.951 Y89.441 E59.18510
G1 X78.935 Y94.457 E59.54816
G1 X79.209 Y94.731 E59.56798
G1 X83.951 Y89.989 E59.91122
G1 X83.951 Y90.536 E59.93925
G1 X79.482 Y95.005 E60.26268
G1 X79.756 Y95.279 E60.28250
G1 X83.951 Y91.084 E60.58610
G1 X83.951 Y91.632 E60.61413
G1 X80.030 Y95.552 E60.89792
G1 X80.304 Y95.826 E60.91774
G1 X83.951 Y92.179 E61.18171
G1 X83.951 Y92.727 E61.20973
G1 X80.578 Y96.100 E61.45389
G1 X80.852 Y96.374 E61.47370
G1 X83.951 Y93.274 E61.69804
G1 X83.951 Y93.822 E61.72606
G1 X81.125 Y96.648 E61.93058
G1 X81.399 Y96.921 E61.95040
G1 X83.951 Y94.370 E62.13509
G1 X83.951 Y94.917 E62.16312
G1 X81.673 Y97.195 E62.32800
G1 X81.947 Y97.469 E62.34782
G1 X83.951 Y95.465 E62.49287
G1 X83.951 Y96.013 E62.52090
G1 X82.221 Y97.743 E62.64614
G1 X82.494 Y98.017 E62.66596
G1 X83.951 Y96.560 E62.77138
G1 X83.951 Y97.108 E62.79941
G1 X82.768 Y98.291 E62.88501
G1 X82.981 Y98.503 E62.90040
G1 X83.103 Y98.503 E62.90666
G1 X83.951 Y97.656 E62.96802
G1 X83.951 Y98.203 E62.99605
G1 X83.651 Y98.503 E63.01777
G1 E59.01777 F600.00000
G92 E0
G1 Z0.700 F3000.000
G1 X60.055 Y86.503 F3000.000
G1 Z0.300 F3000.000
G1 E4.00000 F600.00000
G1 F720
G1 X60.682 Y85.877 E4.04535
G1 X61.430 Y84.581 E4.12192
G1 X59.507 Y86.503 E4.26105
G1 X58.960 Y86.503 E4.28908
G1 X62.178 Y83.285 E4.52200
G1 X62.926 Y81.990 E4.59857
G1 X58.412 Y86.503 E4.92527
G1 X57.865 Y86.503 E4.95329
G1 X63.674 Y80.694 E5.37378
G1 X64.422 Y79.398 E5.45035
G1 X57.317 Y86.503 E5.96461
G1 X56.769 Y86.503 E5.99264
G1 E1.99264 F600.00000
G92 E0
G1 Z0.700 F3000.000
G1 X73.271 Y44.888 F3000.000
G1 Z0.300 F3000.000
G1 E4.00000 F600.00000
G1 F900
G1 X64.566 Y44.888 E4.44368
G1 X60.213 Y37.349 E4.88735
G1 X64.566 Y29.811 E5.33103
G1 X73.271 Y29.811 E5.77470
G1 X77.623 Y37.349 E6.21838
G1 X73.301 Y44.836 E6.65899
G1 X73.048 Y44.503 F3000.000
G1 F297
G1 X64.788 Y44.503 E7.07997
G1 X60.658 Y37.349 E7.50096
G1 X64.788 Y30.196 E7.92194
G1 X73.048 Y30.196 E8.34292
G1 X77.178 Y37.349 E8.76390
G1 X73.078 Y44.451 E9.18182
G1 X73.048 Y44.903 F3000.000
G1 E5.18182 F600.00000
G92 E0
G1 Z0.700 F3000.000
G1 X73.271 Y26.888 F3000.000
G1 Z0.300 F3000.000
G1 E4.00000 F600.00000
G1 F900
G1 X77.529 Y19.513 E4.43405
G1 X77.529 Y13.402 E4.74549
G1 X82.971 Y7.960 E5.13777
G1 X84.187 Y7.960 E5.19971
G1 X84.187 Y42.477 E6.95893
G1 X78.607 Y50.368 E7.45151
G1 X50.800 Y50.368 E8.86874
G1 X47.529 Y47.097 E9.10453
G1 X47.529 Y24.602 E10.25100
G1 X52.171 Y19.960 E10.58561
G1 X60.566 Y19.960 E11.01346
G1 X64.566 Y26.888 E11.42119
G1 X73.211 Y26.888 E11.86181
G1 X73.048 Y26.503 F3000.000
G1 F297
G1 X77.143 Y19.410 E12.27924
G1 X77.143 Y13.243 E12.59357
G1 X82.811 Y7.574 E13.00212
G1 X84.572 Y7.574 E13.09186
G1 X84.572 Y42.599 E14.87698
G1 X78.806 Y50.753 E15.38598
G1 X50.640 Y50.753 E16.82153
G1 X47.143 Y47.256 E17.07360
G1 X47.143 Y24.443 E18.23635
G1 X52.011 Y19.574 E18.58724
G1 X60.788 Y19.574 E19.03457
G1 X64.788 Y26.503 E19.44231
G1 X72.988 Y26.503 E19.86024
G1 X73.395 Y26.702 F3000.000
G1 E15.86024 F600.00000
G92 E0
G1 Z0.700 F3000.000
G1 X70.958 Y29.575 F3000.000
G1 Z0.300 F3000.000
G1 E4.00000 F600.00000
G1 F720
G1 X73.409 Y27.124 E4.17695
G1 X72.863 Y27.124 E4.20483
